;FLAVOR:Marlin
;TIME:3841
;Filament used: 1.73164m
;Layer height: 0.2
;Generated with Cura_SteamEngine 3.6.0
M140 S65
M105
M190 S65
M104 S200
M105
M109 S200
M82 ;absolute extrusion mode
; Ender 3 Custom Start G-code
G28 ; Home all axes
G92 E0 ; Reset Extruder
G1 Z2.0 F3000 ; Move Z Axis up little to prevent scratching of Heat Bed
G1 X0.1 Y20 Z0.3 F5000.0 ; Move to start position
G1 X0.1 Y200.0 Z0.3 F1500.0 E15 ; Draw the first line
G1 X0.4 Y200.0 Z0.3 F5000.0 ; Move to side a little
G1 X0.4 Y20 Z0.3 F1500.0 E30 ; Draw the second line
G92 E0 ; Reset Extruder
G1 Z2.0 F3000 ; Move Z Axis up little to prevent scratching of Heat Bed
; End of custom start GCode
G92 E0
G1 F2400 E-5
;LAYER_COUNT:101
;LAYER:0
M107
M205 X30 Y30
G0 F900 X97.996 Y86.821 Z0.2
M205 X20 Y20
;TYPE:SKIRT
G1 F2400 E0
G1 F900 X98.471 Y86.286 E0.0238
G1 X99.003 Y85.808 E0.04758
G1 X99.585 Y85.392 E0.07138
G1 X100.209 Y85.044 E0.09514
G1 X100.869 Y84.767 E0.11895
G1 X101.556 Y84.566 E0.14275
G1 X102.26 Y84.443 E0.16652
G1 X103.013 Y84.399 E0.19161
G1 X106.005 Y84.401 E0.29113
G1 X106.719 Y84.441 E0.31491
G1 X107.425 Y84.561 E0.33873
G1 X108.091 Y84.752 E0.36177
G1 X114.522 Y86.974 E0.58808
G1 X119.637 Y88.392 E0.76462
G1 X122.222 Y88.993 E0.85289
G1 X124.718 Y89.497 E0.93758
G1 X130.055 Y90.344 E1.11731
G1 X132.711 Y90.65 E1.20624
G1 X133.416 Y90.771 E1.23003
G1 X134.103 Y90.971 E1.25383
G1 X134.763 Y91.245 E1.2776
G1 X135.389 Y91.592 E1.3014
G1 X135.972 Y92.006 E1.32518
G1 X136.505 Y92.483 E1.34897
G1 X136.982 Y93.016 E1.37276
G1 X137.396 Y93.599 E1.39655
G1 X137.742 Y94.225 E1.42034
G1 X138.017 Y94.886 E1.44415
G1 X138.216 Y95.573 E1.46794
G1 X138.337 Y96.277 E1.49169
G1 X138.379 Y96.93 E1.51346
G1 X138.438 Y101.808 E1.67571
G1 X138.742 Y107.168 E1.85427
G1 X139.192 Y111.692 E2.00549
G1 X139.223 Y112.36 E2.02773
G1 X139.213 Y114.163 E2.0877
G1 X139.203 Y114.483 E2.09834
G1 X139.062 Y117.017 E2.18276
G1 X138.988 Y122.352 E2.36022
G1 X139.218 Y128.086 E2.55108
G1 X139.223 Y128.379 E2.56083
G1 X139.213 Y130.175 E2.62057
G1 X139.167 Y130.906 E2.64493
G1 X138.636 Y135.302 E2.7922
G1 X138.368 Y138.521 E2.89964
G1 X138.269 Y139.229 E2.92341
G1 X138.091 Y139.922 E2.94721
G1 X137.838 Y140.591 E2.971
G1 X137.511 Y141.227 E2.99479
G1 X137.115 Y141.823 E3.01859
G1 X136.655 Y142.371 E3.04238
G1 X136.137 Y142.864 E3.06617
G1 X135.568 Y143.297 E3.08995
G1 X134.953 Y143.663 E3.11375
G1 X134.302 Y143.958 E3.13752
G1 X133.621 Y144.179 E3.16134
G1 X132.777 Y144.341 E3.18992
G1 X128.752 Y144.84 E3.32482
G1 X123.454 Y145.752 E3.50362
G1 X120.983 Y146.285 E3.5877
G1 X115.791 Y147.642 E3.76618
G1 X110.718 Y149.278 E3.94347
G1 X108.207 Y150.205 E4.0325
G1 X107.523 Y150.415 E4.05629
G1 X106.82 Y150.547 E4.08008
G1 X105.99 Y150.601 E4.10775
G1 X103.009 Y150.601 E4.2069
G1 X102.295 Y150.561 E4.23068
G1 X101.59 Y150.442 E4.25446
G1 X100.902 Y150.244 E4.27827
G1 X100.241 Y149.971 E4.30206
G1 X99.614 Y149.627 E4.32585
G1 X99.03 Y149.214 E4.34964
G1 X98.496 Y148.739 E4.37341
G1 X98.017 Y148.207 E4.39722
G1 X97.602 Y147.625 E4.42099
G1 X97.253 Y147 E4.4448
G1 X96.977 Y146.34 E4.46859
G1 X96.776 Y145.654 E4.49237
G1 X96.653 Y144.949 E4.51617
G1 X96.609 Y144.199 E4.54116
G1 X96.611 Y136.134 E4.8094
G1 X96.651 Y135.42 E4.83319
G1 X96.705 Y135.045 E4.84579
G1 X97.218 Y132.081 E4.94584
G1 X97.897 Y126.785 E5.12343
G1 X98.272 Y121.496 E5.29978
G1 X98.347 Y116.209 E5.47564
G1 X98.124 Y110.928 E5.65145
G1 X97.601 Y105.653 E5.82776
G1 X96.688 Y99.861 E6.02278
G1 X96.61 Y98.865 E6.05601
G1 X96.609 Y90.8 E6.32425
G1 X96.649 Y90.086 E6.34803
G1 X96.768 Y89.38 E6.37185
G1 X96.965 Y88.693 E6.39562
G1 X97.238 Y88.032 E6.4194
G1 X97.583 Y87.405 E6.44321
G1 X97.996 Y86.821 E6.467
M205 X30 Y30
G0 X98.392 Y86.967
M205 X20 Y20
G1 X98.865 Y86.46 E6.49006
G1 X99.392 Y86.012 E6.51306
G1 X99.968 Y85.627 E6.53611
G1 X100.584 Y85.311 E6.55913
G1 X101.233 Y85.068 E6.58218
G1 X101.905 Y84.901 E6.60521
G1 X102.592 Y84.814 E6.62825
G1 X103.013 Y84.799 E6.64226
G1 X106.005 Y84.801 E6.74177
G1 X106.696 Y84.841 E6.76479
G1 X107.378 Y84.961 E6.78782
G1 X107.96 Y85.13 E6.80798
G1 X114.396 Y87.354 E7.03446
G1 X119.553 Y88.783 E7.21245
G1 X122.125 Y89.381 E7.30028
G1 X124.649 Y89.891 E7.38592
G1 X129.993 Y90.739 E7.56589
G1 X132.665 Y91.047 E7.65535
G1 X133.347 Y91.166 E7.67837
G1 X134.011 Y91.363 E7.70141
G1 X134.648 Y91.634 E7.72443
G1 X135.25 Y91.978 E7.74749
G1 X135.808 Y92.388 E7.77053
G1 X136.314 Y92.86 E7.79354
G1 X136.763 Y93.387 E7.81657
G1 X137.149 Y93.963 E7.83963
G1 X137.465 Y94.579 E7.86266
G1 X137.709 Y95.227 E7.88569
G1 X137.876 Y95.899 E7.90872
G1 X137.964 Y96.586 E7.93175
G1 X137.979 Y96.935 E7.94337
G1 X138.039 Y101.835 E8.10636
G1 X138.342 Y107.183 E8.28452
G1 X138.794 Y111.731 E8.43653
G1 X138.823 Y112.358 E8.45741
G1 X138.813 Y114.161 E8.51738
G1 X138.804 Y114.461 E8.52736
G1 X138.662 Y117.013 E8.61237
G1 X138.587 Y122.363 E8.79033
G1 X138.818 Y128.102 E8.98136
G1 X138.823 Y128.376 E8.99048
G1 X138.813 Y130.172 E9.05021
G1 X138.77 Y130.859 E9.07311
G1 X138.236 Y135.277 E9.22112
G1 X137.969 Y138.488 E9.32829
G1 X137.872 Y139.174 E9.35133
G1 X137.697 Y139.843 E9.37433
G1 X137.445 Y140.489 E9.39739
G1 X137.121 Y141.101 E9.42043
G1 X136.728 Y141.671 E9.44345
G1 X136.272 Y142.193 E9.46651
G1 X135.76 Y142.658 E9.48951
G1 X135.197 Y143.061 E9.51254
G1 X134.591 Y143.397 E9.53559
G1 X133.951 Y143.661 E9.55861
G1 X133.284 Y143.849 E9.58166
G1 X132.728 Y143.944 E9.60042
G1 X128.698 Y144.443 E9.73548
G1 X123.375 Y145.36 E9.91514
G1 X120.889 Y145.896 E9.99972
G1 X115.677 Y147.258 E10.17889
G1 X110.59 Y148.899 E10.35667
G1 X108.068 Y149.83 E10.44609
G1 X107.406 Y150.032 E10.46911
G1 X106.725 Y150.156 E10.49213
G1 X105.99 Y150.201 E10.51662
G1 X103.009 Y150.201 E10.61577
G1 X102.318 Y150.161 E10.63879
G1 X101.635 Y150.042 E10.66185
G1 X100.972 Y149.844 E10.68487
G1 X100.335 Y149.572 E10.7079
G1 X99.734 Y149.228 E10.73094
G1 X99.176 Y148.817 E10.75399
G1 X98.67 Y148.345 E10.777
G1 X98.221 Y147.817 E10.80005
G1 X97.836 Y147.242 E10.82307
G1 X97.521 Y146.625 E10.84611
G1 X97.278 Y145.977 E10.86913
G1 X97.111 Y145.304 E10.89219
G1 X97.023 Y144.618 E10.91519
G1 X97.009 Y144.2 E10.92911
G1 X97.011 Y136.135 E11.19735
G1 X97.099 Y135.113 E11.23147
G1 X97.615 Y132.13 E11.33215
G1 X98.295 Y126.828 E11.50994
G1 X98.672 Y121.513 E11.68717
G1 X98.747 Y116.216 E11.86336
G1 X98.522 Y110.889 E12.0407
G1 X97.998 Y105.6 E12.21747
G1 X97.083 Y99.798 E12.41283
G1 X97.01 Y98.865 E12.44396
G1 X97.009 Y90.8 E12.7122
G1 X97.049 Y90.108 E12.73526
G1 X97.168 Y89.426 E12.75828
G1 X97.365 Y88.762 E12.78132
G1 X97.638 Y88.126 E12.80434
G1 X97.981 Y87.524 E12.82738
G1 X98.392 Y86.967 E12.85041
M205 X30 Y30
G0 X98.788 Y87.119
M205 X20 Y20
G1 X99.257 Y86.642 E12.87265
G1 X99.78 Y86.224 E12.89492
G1 X100.349 Y85.871 E12.91719
G1 X100.955 Y85.589 E12.93943
G1 X101.591 Y85.381 E12.96168
G1 X102.247 Y85.251 E12.98392
G1 X103.013 Y85.199 E13.00946
G1 X106.005 Y85.201 E13.10897
G1 X106.673 Y85.241 E13.13123
G1 X107.331 Y85.361 E13.15348
G1 X107.83 Y85.508 E13.17078
G1 X114.275 Y87.735 E13.39758
G1 X119.452 Y89.17 E13.57626
G1 X122.053 Y89.775 E13.66508
G1 X124.581 Y90.285 E13.75085
G1 X129.954 Y91.138 E13.9318
G1 X132.619 Y91.445 E14.02102
G1 X133.278 Y91.561 E14.04328
G1 X133.918 Y91.755 E14.06552
G1 X134.531 Y92.023 E14.08777
G1 X135.107 Y92.363 E14.11002
G1 X135.639 Y92.77 E14.1323
G1 X136.118 Y93.236 E14.15452
G1 X136.539 Y93.757 E14.1768
G1 X136.894 Y94.324 E14.19905
G1 X137.179 Y94.929 E14.2213
G1 X137.39 Y95.564 E14.24355
G1 X137.523 Y96.22 E14.26581
G1 X137.579 Y96.94 E14.28983
G1 X137.639 Y101.84 E14.45282
G1 X137.944 Y107.222 E14.63211
G1 X138.396 Y111.771 E14.78416
G1 X138.423 Y112.356 E14.80364
G1 X138.413 Y114.159 E14.86361
G1 X138.404 Y114.439 E14.87292
G1 X138.262 Y116.986 E14.95777
G1 X138.187 Y122.373 E15.13696
G1 X138.418 Y128.118 E15.32819
G1 X138.423 Y128.374 E15.33671
G1 X138.413 Y130.17 E15.39645
G1 X138.373 Y130.811 E15.41781
G1 X137.84 Y135.223 E15.56562
G1 X137.571 Y138.455 E15.67349
G1 X137.475 Y139.117 E15.69573
G1 X137.302 Y139.763 E15.71798
G1 X137.053 Y140.384 E15.74023
G1 X136.731 Y140.97 E15.76247
G1 X136.342 Y141.515 E15.78474
G1 X135.89 Y142.008 E15.80699
G1 X135.383 Y142.445 E15.82925
G1 X134.828 Y142.818 E15.85149
G1 X134.232 Y143.122 E15.87374
G1 X133.604 Y143.352 E15.89599
G1 X132.679 Y143.547 E15.92743
G1 X128.643 Y144.047 E16.06269
G1 X123.297 Y144.968 E16.24312
G1 X120.795 Y145.507 E16.32825
G1 X115.575 Y146.872 E16.5077
G1 X110.434 Y148.529 E16.68735
G1 X107.93 Y149.454 E16.77614
G1 X107.289 Y149.648 E16.79841
G1 X106.631 Y149.764 E16.82064
G1 X105.99 Y149.801 E16.84199
G1 X103.009 Y149.801 E16.94114
G1 X102.341 Y149.761 E16.9634
G1 X101.683 Y149.642 E16.98564
G1 X101.043 Y149.445 E17.00791
G1 X100.432 Y149.173 E17.03015
G1 X99.858 Y148.83 E17.05239
G1 X99.328 Y148.421 E17.07466
G1 X98.851 Y147.952 E17.09691
G1 X98.433 Y147.43 E17.11915
G1 X98.081 Y146.861 E17.14141
G1 X97.799 Y146.254 E17.16367
G1 X97.591 Y145.618 E17.18592
G1 X97.461 Y144.962 E17.20817
G1 X97.409 Y144.2 E17.23357
G1 X97.411 Y136.135 E17.50181
G1 X97.493 Y135.181 E17.53366
G1 X98.008 Y132.202 E17.63421
G1 X98.694 Y126.855 E17.81351
G1 X99.071 Y121.529 E17.9911
G1 X99.148 Y116.205 E18.16819
G1 X98.922 Y110.867 E18.34589
G1 X98.395 Y105.552 E18.52354
G1 X97.478 Y99.736 E18.71937
G1 X97.41 Y98.865 E18.74843
G1 X97.409 Y90.8 E19.01667
G1 X97.449 Y90.132 E19.03893
G1 X97.568 Y89.474 E19.06117
G1 X97.765 Y88.834 E19.08344
G1 X98.037 Y88.223 E19.10568
G1 X98.379 Y87.648 E19.12794
G1 X98.788 Y87.119 E19.15018
M205 X30 Y30
G0 X98.777 Y87.777
M205 X20 Y20
G1 X99.184 Y87.277 E19.17162
G1 X99.649 Y86.83 E19.19307
G1 X100.166 Y86.445 E19.21451
G1 X100.726 Y86.127 E19.23593
G1 X101.322 Y85.88 E19.25739
G1 X101.944 Y85.709 E19.27884
G1 X102.582 Y85.617 E19.30028
G1 X103.012 Y85.599 E19.3146
G1 X106.004 Y85.601 E19.41411
G1 X106.648 Y85.641 E19.43557
G1 X107.281 Y85.761 E19.457
G1 X107.699 Y85.886 E19.47151
G1 X114.164 Y88.12 E19.69902
G1 X119.352 Y89.558 E19.87808
G1 X121.955 Y90.163 E19.96696
G1 X124.508 Y90.679 E20.05359
G1 X129.889 Y91.533 E20.2348
G1 X132.574 Y91.842 E20.3247
G1 X133.208 Y91.955 E20.34611
G1 X133.824 Y92.146 E20.36757
G1 X134.411 Y92.412 E20.389
G1 X134.961 Y92.748 E20.41044
G1 X135.465 Y93.15 E20.43188
G1 X135.916 Y93.611 E20.45333
G1 X136.306 Y94.124 E20.47476
G1 X136.63 Y94.682 E20.49622
G1 X136.882 Y95.275 E20.51765
G1 X137.059 Y95.895 E20.5391
G1 X137.157 Y96.532 E20.56053
G1 X137.179 Y96.945 E20.57429
G1 X137.239 Y101.846 E20.73731
G1 X137.547 Y107.282 E20.9184
G1 X137.997 Y111.81 E21.06975
G1 X138.023 Y112.354 E21.08786
G1 X138.013 Y114.157 E21.14783
G1 X138.005 Y114.417 E21.15648
G1 X137.862 Y116.982 E21.24193
G1 X137.787 Y122.365 E21.42098
G1 X138.019 Y128.134 E21.61302
G1 X138.023 Y128.372 E21.62093
G1 X138.013 Y130.168 E21.68067
G1 X137.975 Y130.763 E21.7005
G1 X137.443 Y135.17 E21.84814
G1 X137.172 Y138.421 E21.95664
G1 X137.079 Y139.059 E21.97809
G1 X136.907 Y139.681 E21.99955
G1 X136.66 Y140.276 E22.02098
G1 X136.342 Y140.837 E22.04243
G1 X135.956 Y141.353 E22.06386
G1 X135.509 Y141.818 E22.08531
G1 X135.009 Y142.224 E22.10674
G1 X134.462 Y142.565 E22.12817
G1 X133.876 Y142.836 E22.14965
G1 X133.262 Y143.032 E22.17109
G1 X132.63 Y143.151 E22.19248
G1 X128.571 Y143.654 E22.32851
G1 X123.21 Y144.577 E22.50944
G1 X120.707 Y145.117 E22.59461
G1 X115.456 Y146.489 E22.77512
G1 X110.313 Y148.148 E22.95486
G1 X107.791 Y149.079 E23.04427
G1 X107.174 Y149.264 E23.06569
G1 X106.538 Y149.372 E23.08715
G1 X105.99 Y149.401 E23.1054
G1 X103.009 Y149.401 E23.20455
G1 X102.366 Y149.361 E23.22598
G1 X101.732 Y149.242 E23.24743
G1 X101.118 Y149.045 E23.26888
G1 X100.533 Y148.774 E23.29032
G1 X99.986 Y148.432 E23.31178
G1 X99.486 Y148.026 E23.3332
G1 X99.04 Y147.561 E23.35463
G1 X98.655 Y147.044 E23.37607
G1 X98.336 Y146.483 E23.39754
G1 X98.09 Y145.887 E23.41898
G1 X97.919 Y145.266 E23.44041
G1 X97.827 Y144.628 E23.46185
G1 X97.809 Y144.2 E23.47609
G1 X97.811 Y136.135 E23.74434
G1 X97.887 Y135.249 E23.77391
G1 X98.406 Y132.252 E23.87508
G1 X99.092 Y126.9 E24.05454
G1 X99.471 Y121.545 E24.2331
G1 X99.548 Y116.194 E24.41109
G1 X99.322 Y110.847 E24.58909
G1 X98.792 Y105.503 E24.7677
G1 X97.873 Y99.674 E24.96397
G1 X97.81 Y98.865 E24.99096
G1 X97.809 Y90.8 E25.2592
G1 X97.849 Y90.156 E25.28066
G1 X97.968 Y89.523 E25.30209
G1 X98.165 Y88.909 E25.32353
G1 X98.436 Y88.324 E25.34498
G1 X98.777 Y87.777 E25.36642
M205 X30 Y30
G1 F2400 E20.36642
;MESH:CD-Servo-Bracket(1).stl
G0 F900 X102.335 Y91.404
G0 X103.614 Y91.404
G0 X105.33 Y97.671
G0 X105.4 Y97.601
M205 X20 Y20
;TYPE:WALL-INNER
G1 F2400 E25.36642
G1 F900 X131.4 Y97.601 E26.23118
G1 X131.4 Y137.399 E27.55487
G1 X105.4 Y137.399 E28.41963
G1 X105.4 Y143.61 E28.62621
G1 X103.6 Y143.61 E28.68608
G1 X103.6 Y136.735 E28.91474
G1 X129.6 Y136.735 E29.7795
G1 X129.6 Y98.265 E31.05902
G1 X103.6 Y98.265 E31.92379
G1 X103.6 Y91.39 E32.15245
G1 X105.4 Y91.39 E32.21232
G1 X105.4 Y97.601 E32.4189
M205 X30 Y30
G0 X105.8 Y97.201
M205 X20 Y20
;TYPE:WALL-OUTER
G1 X131.8 Y97.201 E33.28366
G1 X131.8 Y137.799 E34.63395
G1 X105.8 Y137.799 E35.49872
G1 X105.8 Y144.01 E35.7053
G1 X103.2 Y144.01 E35.79177
G1 X103.2 Y136.335 E36.04704
G1 X129.2 Y136.335 E36.91181
G1 X129.2 Y98.665 E38.16472
G1 X103.2 Y98.665 E39.02948
G1 X103.2 Y90.99 E39.28475
G1 X105.8 Y90.99 E39.37123
G1 X105.8 Y97.201 E39.57781
M205 X30 Y30
G0 X106 Y97.201
G0 X106 Y97.701
G0 X105.01 Y97.875
M205 X20 Y20
;TYPE:SKIN
G1 X103.99 Y97.875 E39.61173
G1 X103.99 Y91.78 E39.81445
G1 X105.01 Y91.78 E39.84838
G1 X105.01 Y97.875 E40.0511
M205 X30 Y30
G0 X129.99 Y97.991
M205 X20 Y20
G1 X131.01 Y97.991 E40.08502
G1 X131.01 Y137.009 E41.38277
G1 X129.99 Y137.009 E41.41669
G1 X129.99 Y97.991 E42.71444
M205 X30 Y30
G0 X129.628 Y136.763
G0 X105.01 Y137.125
M205 X20 Y20
G1 X105.01 Y143.22 E42.91716
G1 X103.99 Y143.22 E42.95108
G1 X103.99 Y137.125 E43.1538
G1 X105.01 Y137.125 E43.18773
M205 X30 Y30
G0 X104.572 Y143.039
M205 X20 Y20
G1 X104.169 Y142.636 E43.20669
M205 X30 Y30
G0 X104.169 Y142.07
M205 X20 Y20
G1 X104.829 Y142.73 E43.23773
M205 X30 Y30
G0 X104.829 Y142.165
M205 X20 Y20
G1 X104.169 Y141.504 E43.2688
M205 X30 Y30
G0 X104.169 Y140.939
M205 X20 Y20
G1 X104.829 Y141.599 E43.29984
M205 X30 Y30
G0 X104.829 Y141.033
M205 X20 Y20
G1 X104.169 Y140.373 E43.33089
M205 X30 Y30
G0 X104.169 Y139.807
M205 X20 Y20
G1 X104.829 Y140.468 E43.36195
M205 X30 Y30
G0 X104.829 Y139.902
M205 X20 Y20
G1 X104.169 Y139.242 E43.393
M205 X30 Y30
G0 X104.169 Y138.676
M205 X20 Y20
G1 X104.829 Y139.336 E43.42404
M205 X30 Y30
G0 X104.829 Y138.771
M205 X20 Y20
G1 X104.169 Y138.11 E43.45511
M205 X30 Y30
G0 X104.169 Y137.544
M205 X20 Y20
G1 X104.829 Y138.205 E43.48618
M205 X30 Y30
G0 X104.829 Y137.639
M205 X20 Y20
G1 X104.494 Y137.304 E43.50194
M205 X30 Y30
G0 X129.628 Y136.763
G0 X130.169 Y136.391
M205 X20 Y20
G1 X130.605 Y136.827 E43.52244
M205 X30 Y30
G0 X130.83 Y136.487
M205 X20 Y20
G1 X130.169 Y135.826 E43.55354
M205 X30 Y30
G0 X130.169 Y135.26
M205 X20 Y20
G1 X130.83 Y135.921 E43.58463
M205 X30 Y30
G0 X130.83 Y135.355
M205 X20 Y20
G1 X130.169 Y134.694 E43.61572
M205 X30 Y30
G0 X130.169 Y134.128
M205 X20 Y20
G1 X130.83 Y134.79 E43.64683
M205 X30 Y30
G0 X130.83 Y134.224
M205 X20 Y20
G1 X130.169 Y133.563 E43.67792
M205 X30 Y30
G0 X130.169 Y132.997
M205 X20 Y20
G1 X130.83 Y133.658 E43.70902
M205 X30 Y30
G0 X130.83 Y133.093
M205 X20 Y20
G1 X130.169 Y132.431 E43.74013
M205 X30 Y30
G0 X130.169 Y131.866
M205 X20 Y20
G1 X130.83 Y132.527 E43.77122
M205 X30 Y30
G0 X130.83 Y131.961
M205 X20 Y20
G1 X130.169 Y131.3 E43.80231
M205 X30 Y30
G0 X130.169 Y130.734
M205 X20 Y20
G1 X130.83 Y131.395 E43.83341
M205 X30 Y30
G0 X130.83 Y130.83
M205 X20 Y20
G1 X130.169 Y130.169 E43.8645
M205 X30 Y30
G0 X130.169 Y129.603
M205 X20 Y20
G1 X130.83 Y130.264 E43.89559
M205 X30 Y30
G0 X130.83 Y129.698
M205 X20 Y20
G1 X130.169 Y129.037 E43.92668
M205 X30 Y30
G0 X130.169 Y128.472
M205 X20 Y20
G1 X130.83 Y129.133 E43.95777
M205 X30 Y30
G0 X130.83 Y128.567
M205 X20 Y20
G1 X130.169 Y127.906 E43.98886
M205 X30 Y30
G0 X130.169 Y127.34
M205 X20 Y20
G1 X130.83 Y128.001 E44.01995
M205 X30 Y30
