;FLAVOR:Marlin
;TIME:4379
;Filament used: 0.385367m
;Layer height: 0.05
;Generated with Cura_SteamEngine 3.6.0
M140 S65
M105
M190 S65
M104 S200
M105
M109 S200
M82 ;absolute extrusion mode
; Ender 3 Custom Start G-code
G28 ; Home all axes
G92 E0 ; Reset Extruder
G1 Z2.0 F3000 ; Move Z Axis up little to prevent scratching of Heat Bed
G1 X0.1 Y20 Z0.3 F5000.0 ; Move to start position
G1 X0.1 Y200.0 Z0.3 F1500.0 E15 ; Draw the first line
G1 X0.4 Y200.0 Z0.3 F5000.0 ; Move to side a little
G1 X0.4 Y20 Z0.3 F1500.0 E30 ; Draw the second line
G92 E0 ; Reset Extruder
G1 Z2.0 F3000 ; Move Z Axis up little to prevent scratching of Heat Bed
; End of custom start GCode
G92 E0
G1 F2400 E-5
;LAYER_COUNT:110
;LAYER:0
M107
M205 X30 Y30
G0 F600 X105.102 Y105.036 Z0.2
M205 X20 Y20
;TYPE:SKIRT
G1 F2400 E0
G1 F600 X105.566 Y104.586 E0.0215
G1 X106.243 Y103.993 E0.05143
G1 X106.721 Y103.613 E0.07174
G1 X107.77 Y102.858 E0.11473
G1 X108.429 Y102.442 E0.14065
G1 X109.675 Y101.758 E0.18793
G1 X110.402 Y101.416 E0.21465
G1 X111.677 Y100.912 E0.26025
G1 X112.348 Y100.689 E0.28376
G1 X113.427 Y100.395 E0.32096
G1 X113.982 Y100.27 E0.33988
G1 X114.815 Y100.121 E0.36803
G1 X115.427 Y100.042 E0.38855
G1 X116.766 Y99.934 E0.43323
G1 X117.545 Y99.918 E0.45915
G1 X118.903 Y99.974 E0.50435
G1 X119.79 Y100.073 E0.53404
G1 X121.524 Y100.39 E0.59267
G1 X122.228 Y100.561 E0.61676
G1 X123.004 Y100.796 E0.64373
G1 X123.615 Y101.015 E0.66532
G1 X124.913 Y101.557 E0.7121
G1 X125.612 Y101.9 E0.738
G1 X126.772 Y102.56 E0.78239
G1 X127.414 Y102.978 E0.80787
G1 X128.479 Y103.766 E0.85193
G1 X129.002 Y104.198 E0.87449
G1 X129.788 Y104.92 E0.90999
G1 X130.2 Y105.335 E0.92944
G1 X130.858 Y106.061 E0.96203
G1 X131.269 Y106.564 E0.98364
G1 X132.026 Y107.592 E1.0261
G1 X132.44 Y108.23 E1.05139
G1 X133.128 Y109.443 E1.09778
G1 X133.447 Y110.088 E1.12171
G1 X133.893 Y111.133 E1.1595
G1 X134.191 Y111.997 E1.1899
G1 X134.715 Y113.963 E1.25757
G1 X134.876 Y114.77 E1.28494
G1 X134.984 Y115.585 E1.31228
G1 X135.035 Y116.203 E1.33291
G1 X135.083 Y117.58 E1.37873
G1 X135.063 Y118.356 E1.40455
G1 X134.948 Y119.681 E1.44879
G1 X134.849 Y120.379 E1.47224
G1 X134.625 Y121.503 E1.51036
G1 X134.447 Y122.19 E1.53396
G1 X134.051 Y123.436 E1.57744
G1 X133.788 Y124.124 E1.60194
G1 X133.262 Y125.293 E1.64458
G1 X132.902 Y125.98 E1.67038
G1 X132.159 Y127.208 E1.71811
G1 X131.719 Y127.844 E1.74384
G1 X130.931 Y128.849 E1.78631
G1 X130.44 Y129.406 E1.81101
G1 X129.518 Y130.336 E1.85456
G1 X128.934 Y130.857 E1.88059
G1 X127.826 Y131.73 E1.92751
G1 X127.187 Y132.173 E1.95337
G1 X126.054 Y132.861 E1.99746
G1 X125.398 Y133.209 E2.02216
G1 X124.213 Y133.752 E2.06551
G1 X123.312 Y134.086 E2.09747
G1 X121.378 Y134.641 E2.16439
G1 X120.437 Y134.836 E2.19636
G1 X119.105 Y135.009 E2.24103
G1 X118.343 Y135.062 E2.26644
G1 X116.998 Y135.075 E2.31117
G1 X115.996 Y135.006 E2.34458
G1 X113.861 Y134.689 E2.41637
G1 X112.868 Y134.459 E2.45027
G1 X111.536 Y134.037 E2.49674
G1 X110.825 Y133.764 E2.52207
G1 X109.648 Y133.23 E2.56506
G1 X108.961 Y132.867 E2.5909
G1 X107.757 Y132.133 E2.6378
G1 X107.127 Y131.695 E2.66333
G1 X106.137 Y130.915 E2.70524
G1 X105.598 Y130.439 E2.72916
G1 X104.699 Y129.55 E2.77121
G1 X104.171 Y128.959 E2.79757
G1 X103.24 Y127.777 E2.84762
G1 X102.782 Y127.113 E2.87445
G1 X102.096 Y125.971 E2.91875
G1 X101.743 Y125.294 E2.94415
G1 X101.207 Y124.099 E2.98771
G1 X100.9 Y123.266 E3.01724
G1 X100.392 Y121.518 E3.07778
G1 X100.218 Y120.742 E3.10423
G1 X100.073 Y119.835 E3.13478
G1 X100.006 Y119.234 E3.15489
G1 X99.928 Y118.017 E3.19546
G1 X99.924 Y117.264 E3.2205
G1 X100.001 Y115.834 E3.26813
G1 X100.082 Y115.108 E3.29243
G1 X100.27 Y113.999 E3.32984
G1 X100.43 Y113.297 E3.35379
G1 X100.802 Y112.006 E3.39847
G1 X101.053 Y111.295 E3.42355
G1 X101.564 Y110.081 E3.46736
G1 X101.9 Y109.399 E3.49265
G1 X102.576 Y108.211 E3.53811
G1 X102.982 Y107.586 E3.5629
G1 X103.719 Y106.583 E3.6043
G1 X104.195 Y106.009 E3.6291
G1 X105.102 Y105.036 E3.67334
M205 X30 Y30
G0 X105.394 Y105.309
M205 X20 Y20
G1 X105.83 Y104.887 E3.69352
G1 X106.507 Y104.294 E3.72345
G1 X106.955 Y103.937 E3.74251
G1 X108.004 Y103.182 E3.78549
G1 X108.622 Y102.792 E3.8098
G1 X109.868 Y102.108 E3.85708
G1 X110.549 Y101.788 E3.8821
G1 X111.824 Y101.284 E3.9277
G1 X112.453 Y101.075 E3.94975
G1 X113.532 Y100.781 E3.98694
G1 X114.053 Y100.664 E4.0047
G1 X114.886 Y100.515 E4.03285
G1 X115.46 Y100.44 E4.0521
G1 X116.799 Y100.332 E4.09678
G1 X117.528 Y100.318 E4.12103
G1 X118.886 Y100.374 E4.16624
G1 X119.718 Y100.467 E4.19408
G1 X121.452 Y100.784 E4.25271
G1 X122.112 Y100.944 E4.2753
G1 X122.888 Y101.179 E4.30227
G1 X123.461 Y101.384 E4.32251
G1 X124.759 Y101.926 E4.36929
G1 X125.414 Y102.248 E4.39357
G1 X126.574 Y102.908 E4.43796
G1 X127.176 Y103.3 E4.46185
G1 X128.241 Y104.088 E4.50592
G1 X128.731 Y104.492 E4.52704
G1 X129.517 Y105.214 E4.56254
G1 X129.904 Y105.604 E4.58081
G1 X130.562 Y106.33 E4.6134
G1 X130.947 Y106.801 E4.63363
G1 X131.704 Y107.829 E4.67609
G1 X132.092 Y108.427 E4.6998
G1 X132.78 Y109.64 E4.74618
G1 X133.079 Y110.245 E4.76863
G1 X133.525 Y111.29 E4.80642
G1 X133.805 Y112.1 E4.83493
G1 X134.329 Y114.066 E4.9026
G1 X134.479 Y114.823 E4.92826
G1 X134.587 Y115.638 E4.95561
G1 X134.635 Y116.217 E4.97493
G1 X134.683 Y117.594 E5.02076
G1 X134.665 Y118.322 E5.04498
G1 X134.55 Y119.647 E5.08922
G1 X134.456 Y120.301 E5.11119
G1 X134.232 Y121.425 E5.14931
G1 X134.066 Y122.069 E5.17143
G1 X133.67 Y123.315 E5.21492
G1 X133.424 Y123.96 E5.23788
G1 X132.898 Y125.129 E5.28051
G1 X132.559 Y125.773 E5.30472
G1 X131.816 Y127.001 E5.35245
G1 X131.405 Y127.597 E5.37653
G1 X130.617 Y128.602 E5.41901
G1 X130.156 Y129.124 E5.44217
G1 X129.234 Y130.054 E5.48573
G1 X128.686 Y130.543 E5.51016
G1 X127.578 Y131.416 E5.55708
G1 X126.979 Y131.832 E5.58133
G1 X125.846 Y132.52 E5.62542
G1 X125.231 Y132.846 E5.64857
G1 X124.046 Y133.389 E5.69192
G1 X123.202 Y133.701 E5.72185
G1 X121.268 Y134.256 E5.78877
G1 X120.386 Y134.439 E5.81873
G1 X119.054 Y134.612 E5.86341
G1 X118.339 Y134.662 E5.88725
G1 X116.994 Y134.675 E5.93198
G1 X116.055 Y134.61 E5.96329
G1 X113.92 Y134.293 E6.03508
G1 X112.989 Y134.078 E6.06686
G1 X111.657 Y133.656 E6.11333
G1 X110.99 Y133.4 E6.13709
G1 X109.813 Y132.866 E6.18008
G1 X109.169 Y132.525 E6.20432
G1 X107.965 Y131.791 E6.25122
G1 X107.375 Y131.381 E6.27512
G1 X106.385 Y130.601 E6.31704
G1 X105.879 Y130.154 E6.33949
G1 X104.98 Y129.265 E6.38154
G1 X104.486 Y128.712 E6.40621
G1 X103.555 Y127.53 E6.45625
G1 X103.125 Y126.907 E6.48143
G1 X102.439 Y125.765 E6.52574
G1 X102.107 Y125.131 E6.54954
G1 X101.571 Y123.936 E6.5931
G1 X101.284 Y123.154 E6.62081
G1 X100.776 Y121.406 E6.68135
G1 X100.613 Y120.679 E6.70613
G1 X100.468 Y119.772 E6.73668
G1 X100.405 Y119.209 E6.75552
G1 X100.327 Y117.992 E6.79608
G1 X100.324 Y117.285 E6.8196
G1 X100.401 Y115.855 E6.86723
G1 X100.476 Y115.175 E6.88998
G1 X100.664 Y114.066 E6.9274
G1 X100.815 Y113.408 E6.94985
G1 X101.187 Y112.117 E6.99454
G1 X101.422 Y111.45 E7.01806
G1 X101.933 Y110.236 E7.06187
G1 X102.248 Y109.597 E7.08556
G1 X102.924 Y108.409 E7.13102
G1 X103.304 Y107.823 E7.15425
G1 X104.041 Y106.82 E7.19565
G1 X104.487 Y106.282 E7.21889
G1 X105.394 Y105.309 E7.26314
M205 X30 Y30
G0 X105.687 Y105.582
M205 X20 Y20
G1 X106.093 Y105.187 E7.28198
G1 X106.77 Y104.594 E7.31191
G1 X107.189 Y104.262 E7.32969
G1 X108.238 Y103.507 E7.37268
G1 X108.814 Y103.143 E7.39534
G1 X110.06 Y102.459 E7.44262
G1 X110.696 Y102.16 E7.46599
G1 X111.971 Y101.656 E7.51159
G1 X112.558 Y101.461 E7.53216
G1 X113.637 Y101.167 E7.56936
G1 X114.123 Y101.057 E7.58593
G1 X114.956 Y100.908 E7.61408
G1 X115.492 Y100.839 E7.63205
G1 X116.831 Y100.731 E7.67673
G1 X117.512 Y100.718 E7.69939
G1 X118.87 Y100.774 E7.74459
G1 X119.646 Y100.86 E7.77056
G1 X121.38 Y101.177 E7.82919
G1 X121.996 Y101.326 E7.85027
G1 X122.772 Y101.561 E7.87723
G1 X123.307 Y101.753 E7.89614
G1 X124.605 Y102.295 E7.94292
G1 X125.216 Y102.596 E7.96558
G1 X126.376 Y103.256 E8.00997
G1 X126.938 Y103.621 E8.03226
G1 X128.003 Y104.409 E8.07632
G1 X128.46 Y104.787 E8.09605
G1 X129.246 Y105.509 E8.13154
G1 X129.607 Y105.872 E8.14857
G1 X130.265 Y106.598 E8.18116
G1 X130.625 Y107.038 E8.20007
G1 X131.382 Y108.066 E8.24253
G1 X131.744 Y108.624 E8.26465
G1 X132.432 Y109.837 E8.31103
G1 X132.712 Y110.402 E8.33201
G1 X133.158 Y111.447 E8.3698
G1 X133.418 Y112.203 E8.39639
G1 X133.942 Y114.169 E8.46406
G1 X134.082 Y114.875 E8.488
G1 X134.19 Y115.69 E8.51534
G1 X134.236 Y116.231 E8.5334
G1 X134.284 Y117.608 E8.57923
G1 X134.266 Y118.287 E8.60182
G1 X134.151 Y119.612 E8.64606
G1 X134.064 Y120.222 E8.66655
G1 X133.84 Y121.346 E8.70467
G1 X133.685 Y121.948 E8.72534
G1 X133.289 Y123.194 E8.76883
G1 X133.059 Y123.796 E8.79026
G1 X132.533 Y124.965 E8.8329
G1 X132.217 Y125.566 E8.85548
G1 X131.474 Y126.794 E8.90322
G1 X131.09 Y127.35 E8.9257
G1 X130.302 Y128.355 E8.96817
G1 X129.872 Y128.843 E8.9898
G1 X128.95 Y129.773 E9.03336
G1 X128.439 Y130.229 E9.05614
G1 X127.331 Y131.102 E9.10306
G1 X126.772 Y131.49 E9.12569
G1 X125.639 Y132.178 E9.16978
G1 X125.065 Y132.482 E9.19138
G1 X123.88 Y133.025 E9.23473
G1 X123.092 Y133.317 E9.26268
G1 X121.158 Y133.872 E9.32961
G1 X120.334 Y134.042 E9.35759
G1 X119.002 Y134.215 E9.40226
G1 X118.335 Y134.262 E9.4245
G1 X116.99 Y134.275 E9.46924
G1 X116.114 Y134.214 E9.49845
G1 X113.979 Y133.897 E9.57024
G1 X113.11 Y133.696 E9.5999
G1 X111.778 Y133.274 E9.64638
G1 X111.155 Y133.036 E9.66856
G1 X109.978 Y132.502 E9.71154
G1 X109.377 Y132.184 E9.73416
G1 X108.173 Y131.45 E9.78106
G1 X107.622 Y131.067 E9.80338
G1 X106.632 Y130.287 E9.8453
G1 X106.16 Y129.87 E9.86625
G1 X105.261 Y128.981 E9.9083
G1 X104.8 Y128.464 E9.93134
G1 X103.869 Y127.282 E9.98138
G1 X103.468 Y126.701 E10.00486
G1 X102.782 Y125.559 E10.04917
G1 X102.472 Y124.967 E10.0714
G1 X101.936 Y123.772 E10.11496
G1 X101.668 Y123.043 E10.14079
G1 X101.16 Y121.295 E10.20133
G1 X101.008 Y120.616 E10.22448
G1 X100.863 Y119.709 E10.25503
G1 X100.804 Y119.183 E10.27263
G1 X100.726 Y117.966 E10.31319
G1 X100.723 Y117.307 E10.33511
G1 X100.8 Y115.877 E10.38274
G1 X100.871 Y115.242 E10.40399
G1 X101.059 Y114.133 E10.4414
G1 X101.199 Y113.518 E10.46238
G1 X101.571 Y112.227 E10.50707
G1 X101.791 Y111.605 E10.52901
G1 X102.302 Y110.391 E10.57282
G1 X102.596 Y109.794 E10.59495
G1 X103.272 Y108.606 E10.64042
G1 X103.626 Y108.06 E10.66206
G1 X104.363 Y107.057 E10.70346
G1 X104.78 Y106.555 E10.72516
G1 X105.687 Y105.582 E10.76941
M205 X30 Y30
G0 X105.979 Y105.854
M205 X20 Y20
G1 X106.357 Y105.488 E10.78691
G1 X107.034 Y104.895 E10.81684
G1 X107.422 Y104.586 E10.83334
G1 X108.471 Y103.831 E10.87632
G1 X109.007 Y103.494 E10.89738
G1 X110.253 Y102.81 E10.94466
G1 X110.843 Y102.532 E10.96635
G1 X112.118 Y102.028 E11.01195
G1 X112.663 Y101.847 E11.03105
G1 X113.742 Y101.553 E11.06825
G1 X114.193 Y101.451 E11.08363
G1 X115.026 Y101.302 E11.11177
G1 X115.524 Y101.238 E11.12847
G1 X116.863 Y101.13 E11.17315
G1 X117.495 Y101.117 E11.19418
G1 X118.853 Y101.173 E11.23938
G1 X119.574 Y101.254 E11.26351
G1 X121.308 Y101.571 E11.32214
G1 X121.88 Y101.709 E11.34171
G1 X122.656 Y101.944 E11.36868
G1 X123.153 Y102.123 E11.38625
G1 X124.451 Y102.665 E11.43303
G1 X125.019 Y102.943 E11.45407
G1 X126.179 Y103.603 E11.49846
G1 X126.7 Y103.943 E11.51915
G1 X127.765 Y104.731 E11.56321
G1 X128.19 Y105.081 E11.58152
G1 X128.976 Y105.803 E11.61702
G1 X129.311 Y106.141 E11.63285
G1 X129.969 Y106.867 E11.66544
G1 X130.303 Y107.276 E11.683
G1 X131.06 Y108.304 E11.72546
G1 X131.396 Y108.822 E11.746
G1 X132.084 Y110.035 E11.79238
G1 X132.344 Y110.559 E11.81184
G1 X132.79 Y111.604 E11.84963
G1 X133.032 Y112.306 E11.87432
G1 X133.556 Y114.272 E11.942
G1 X133.686 Y114.928 E11.96424
G1 X133.794 Y115.743 E11.99158
G1 X133.836 Y116.245 E12.00834
G1 X133.884 Y117.622 E12.05417
G1 X133.868 Y118.253 E12.07516
G1 X133.753 Y119.578 E12.11939
G1 X133.672 Y120.144 E12.13841
G1 X133.448 Y121.268 E12.17653
G1 X133.304 Y121.827 E12.19573
G1 X132.908 Y123.073 E12.23922
G1 X132.694 Y123.632 E12.25912
G1 X132.168 Y124.801 E12.30176
G1 X131.875 Y125.359 E12.32272
G1 X131.132 Y126.587 E12.37046
G1 X130.775 Y127.104 E12.39136
G1 X129.987 Y128.109 E12.43383
G1 X129.588 Y128.561 E12.45389
G1 X128.666 Y129.491 E12.49744
G1 X128.191 Y129.915 E12.51862
G1 X127.083 Y130.788 E12.56554
G1 X126.564 Y131.148 E12.58654
G1 X125.431 Y131.836 E12.63063
G1 X124.898 Y132.118 E12.65069
G1 X123.713 Y132.661 E12.69404
G1 X122.981 Y132.932 E12.72
G1 X121.047 Y133.487 E12.78692
G1 X120.283 Y133.646 E12.81288
G1 X118.951 Y133.819 E12.85755
G1 X118.331 Y133.862 E12.87822
G1 X116.986 Y133.875 E12.92296
G1 X116.172 Y133.819 E12.9501
G1 X114.037 Y133.502 E13.02189
G1 X113.23 Y133.315 E13.04944
G1 X111.898 Y132.893 E13.09591
G1 X111.321 Y132.671 E13.11648
G1 X110.144 Y132.137 E13.15946
G1 X109.585 Y131.842 E13.18049
G1 X108.381 Y131.108 E13.22739
G1 X107.87 Y130.753 E13.24808
G1 X106.88 Y129.973 E13.29
G1 X106.442 Y129.585 E13.30946
G1 X105.543 Y128.696 E13.35151
G1 X105.114 Y128.217 E13.3729
G1 X104.183 Y127.035 E13.42294
G1 X103.81 Y126.495 E13.44477
G1 X103.124 Y125.353 E13.48908
G1 X102.837 Y124.803 E13.50972
G1 X102.301 Y123.608 E13.55328
G1 X102.053 Y122.931 E13.57726
G1 X101.545 Y121.183 E13.6378
G1 X101.403 Y120.553 E13.65928
G1 X101.258 Y119.646 E13.68983
G1 X101.204 Y119.158 E13.70616
G1 X101.126 Y117.941 E13.74672
G1 X101.123 Y117.328 E13.76711
G1 X101.2 Y115.898 E13.81474
G1 X101.265 Y115.309 E13.83445
G1 X101.453 Y114.2 E13.87186
G1 X101.583 Y113.629 E13.89134
G1 X101.955 Y112.338 E13.93603
G1 X102.159 Y111.761 E13.95638
G1 X102.67 Y110.547 E14.00019
G1 X102.943 Y109.992 E14.02076
G1 X103.619 Y108.804 E14.06622
G1 X103.949 Y108.297 E14.08634
G1 X104.686 Y107.294 E14.12774
G1 X105.072 Y106.827 E14.14789
G1 X105.979 Y105.854 E14.19214
M205 X30 Y30
G1 F2400 E9.19214
;MESH:CD-Spindle-Cap-v2(1).stl
G0 F600 X108.144 Y110.211
G0 X109.138 Y111.023
G0 X110.026 Y116.203
G0 X110.086 Y116.282
M205 X20 Y20
;TYPE:WALL-INNER
G1 F2400 E14.19214
G1 F600 X109.844 Y116.504 E14.20306
G1 X109.646 Y116.765 E14.21395
G1 X109.501 Y117.057 E14.2248
G1 X109.409 Y117.374 E14.23578
G1 X109.38 Y117.7 E14.24666
G1 X109.409 Y118.026 E14.25755
G1 X109.501 Y118.343 E14.26853
G1 X109.646 Y118.635 E14.27937
G1 X109.844 Y118.896 E14.29027
G1 X110.086 Y119.118 E14.30119
G1 X110.366 Y119.289 E14.3121
G1 X110.669 Y119.406 E14.3229
G1 X110.964 Y119.462 E14.33289
G1 X117.496 Y120.064 E14.55107
G1 X124.041 Y119.462 E14.76967
G1 X124.335 Y119.406 E14.77963
G1 X124.639 Y119.289 E14.79046
G1 X124.919 Y119.118 E14.80137
G1 X125.161 Y118.896 E14.8123
G1 X125.359 Y118.635 E14.82319
G1 X125.505 Y118.342 E14.83408
G1 X125.595 Y118.027 E14.84498
G1 X125.626 Y117.7 E14.8559
G1 X125.595 Y117.373 E14.86683
G1 X125.505 Y117.058 E14.87772
G1 X125.359 Y116.765 E14.88861
G1 X125.161 Y116.504 E14.89951
G1 X124.919 Y116.282 E14.91043
G1 X124.639 Y116.111 E14.92134
G1 X124.335 Y115.994 E14.93218
G1 X124.041 Y115.938 E14.94213
G1 X117.496 Y115.336 E15.16074
G1 X110.964 Y115.938 E15.37891
G1 X110.669 Y115.994 E15.3889
G1 X110.366 Y116.111 E15.3997
G1 X110.086 Y116.282 E15.41061
M205 X30 Y30
G0 X110.026 Y116.203
G0 X117.99 Y107.011
G0 X117.994 Y106.912
M205 X20 Y20
G1 X118.625 Y106.96 E15.43166
G1 X119.25 Y107.044 E15.45264
G1 X119.862 Y107.167 E15.4734
G1 X120.484 Y107.329 E15.49478
G1 X121.095 Y107.527 E15.51614
G1 X121.677 Y107.757 E15.53695
G1 X122.255 Y108.026 E15.55816
G1 X122.815 Y108.328 E15.57932
G1 X123.354 Y108.662 E15.60041
G1 X123.874 Y109.029 E15.62158
G1 X124.367 Y109.423 E15.64257
G1 X124.828 Y109.841 E15.66327
G1 X125.283 Y110.302 E15.68481
G1 X125.708 Y110.79 E15.70633
G1 X126.082 Y111.276 E15.72673
G1 X126.431 Y111.787 E15.74731
G1 X126.769 Y112.354 E15.76927
G1 X127.054 Y112.906 E15.78993
G1 X127.312 Y113.486 E15.81104
G1 X127.539 Y114.091 E15.83253
G1 X127.722 Y114.685 E15.85321
G1 X127.871 Y115.301 E15.87429
G1 X127.985 Y115.937 E15.89578
G1 X128.06 Y116.559 E15.91661
G1 X128.097 Y117.188 E15.93757
G1 X128.096 Y117.828 E15.95886
G1 X128.059 Y118.451 E15.97962
G1 X127.982 Y119.083 E16.00079
G1 X127.864 Y119.734 E16.0228
G1 X127.722 Y120.314 E16.04266
G1 X127.528 Y120.942 E16.06452
