;FLAVOR:Marlin
;TIME:1941
;Filament used: 1.59942m
;Layer height: 0.2
;Generated with Cura_SteamEngine 3.6.0
M140 S65
M105
M190 S65
M104 S200
M105
M109 S200
M82 ;absolute extrusion mode
; Ender 3 Custom Start G-code
G28 ; Home all axes
G92 E0 ; Reset Extruder
G1 Z2.0 F3000 ; Move Z Axis up little to prevent scratching of Heat Bed
G1 X0.1 Y20 Z0.3 F5000.0 ; Move to start position
G1 X0.1 Y200.0 Z0.3 F1500.0 E15 ; Draw the first line
G1 X0.4 Y200.0 Z0.3 F5000.0 ; Move to side a little
G1 X0.4 Y20 Z0.3 F1500.0 E30 ; Draw the second line
G92 E0 ; Reset Extruder
G1 Z2.0 F3000 ; Move Z Axis up little to prevent scratching of Heat Bed
; End of custom start GCode
G92 E0
G1 F2400 E-5
;LAYER_COUNT:29
;LAYER:0
M107
M204 S5000
M205 X30 Y30
G0 F3600 X83.176 Y91.352 Z0.2
M204 S500
M205 X20 Y20
;TYPE:SKIRT
G1 F2400 E0
G1 F1500 X83.908 Y90.719 E0.03219
G1 X87.055 Y88.389 E0.16242
G1 X91.169 Y85.035 E0.33897
G1 X95.087 Y81.454 E0.51551
G1 X98.812 Y77.64 E0.69283
G1 X101.774 Y74.365 E0.8397
G1 X102.283 Y73.862 E0.8635
G1 X102.818 Y73.438 E0.8862
G1 X103.379 Y73.04 E0.90908
G1 X103.984 Y72.66 E0.93284
G1 X104.325 Y72.484 E0.94561
G1 X104.945 Y72.188 E0.96846
G1 X105.606 Y71.917 E0.99222
G1 X106.008 Y71.792 E1.00622
G1 X106.693 Y71.604 E1.02985
G1 X107.392 Y71.454 E1.05362
G1 X107.796 Y71.403 E1.06717
G1 X108.486 Y71.339 E1.09021
G1 X109.087 Y71.312 E1.11022
G1 X126.293 Y71.339 E1.6825
G1 X127.007 Y71.38 E1.70629
G1 X127.493 Y71.454 E1.72264
G1 X128.215 Y71.593 E1.74709
G1 X128.909 Y71.768 E1.7709
G1 X129.325 Y71.913 E1.78555
G1 X129.996 Y72.174 E1.8095
G1 X130.647 Y72.47 E1.83328
G1 X131.009 Y72.676 E1.84713
G1 X131.581 Y73.025 E1.86942
G1 X132.445 Y73.656 E1.90501
G1 X132.955 Y74.099 E1.92747
G1 X133.481 Y74.612 E1.95191
G1 X137.886 Y79.429 E2.16901
G1 X141.694 Y83.13 E2.34563
G1 X145.683 Y86.59 E2.52126
G1 X151.477 Y91.072 E2.7649
G1 X152.017 Y91.54 E2.78867
G1 X152.541 Y92.114 E2.81452
G1 X152.989 Y92.669 E2.83824
G1 X153.406 Y93.25 E2.86203
G1 X153.623 Y93.616 E2.87618
G1 X153.964 Y94.239 E2.8998
G1 X154.272 Y94.885 E2.9236
G1 X154.423 Y95.294 E2.9381
G1 X154.645 Y95.962 E2.96152
G1 X154.833 Y96.652 E2.9853
G1 X154.954 Y97.498 E3.01373
G1 X155.082 Y99.194 E3.0703
G1 X155.1 Y99.677 E3.08637
G1 X155.09 Y153.273 E4.86898
G1 X155.068 Y153.801 E4.88656
G1 X155.01 Y154.5 E4.90989
G1 X154.911 Y155.209 E4.9337
G1 X154.824 Y155.589 E4.94666
G1 X154.65 Y156.255 E4.96956
G1 X154.431 Y156.936 E4.99335
G1 X154.276 Y157.303 E5.0066
G1 X153.986 Y157.936 E5.02976
G1 X153.653 Y158.568 E5.05352
G1 X153.43 Y158.913 E5.06718
G1 X153.025 Y159.498 E5.09085
G1 X152.586 Y160.062 E5.11462
G1 X152.307 Y160.362 E5.12825
G1 X151.826 Y160.847 E5.15097
G1 X151.295 Y161.326 E5.17475
G1 X150.984 Y161.56 E5.1877
G1 X150.42 Y161.96 E5.21069
G1 X149.815 Y162.341 E5.23447
G1 X149.472 Y162.517 E5.2473
G1 X148.851 Y162.813 E5.27018
G1 X148.189 Y163.084 E5.29397
G1 X147.793 Y163.207 E5.30776
G1 X147.109 Y163.395 E5.33135
G1 X146.41 Y163.546 E5.35514
G1 X146.004 Y163.597 E5.36875
G1 X145.314 Y163.661 E5.3918
G1 X144.72 Y163.688 E5.41157
G1 X89.914 Y163.661 E7.23443
G1 X89.2 Y163.621 E7.25821
G1 X88.707 Y163.546 E7.2748
G1 X87.985 Y163.407 E7.29925
G1 X87.291 Y163.232 E7.32306
G1 X86.875 Y163.087 E7.33771
G1 X86.204 Y162.826 E7.36166
G1 X85.553 Y162.53 E7.38544
G1 X85.191 Y162.324 E7.3993
G1 X84.619 Y161.975 E7.42158
G1 X84.03 Y161.569 E7.44538
G1 X83.75 Y161.339 E7.45743
G1 X83.233 Y160.889 E7.48023
G1 X82.721 Y160.39 E7.504
G1 X82.452 Y160.078 E7.51771
G1 X82.008 Y159.527 E7.54124
G1 X81.591 Y158.946 E7.56503
G1 X81.377 Y158.584 E7.57901
G1 X81.036 Y157.961 E7.60264
G1 X80.728 Y157.315 E7.62644
G1 X80.578 Y156.909 E7.64084
G1 X80.356 Y156.242 E7.66422
G1 X80.168 Y155.552 E7.688
G1 X80.046 Y154.702 E7.71656
G1 X79.918 Y153.005 E7.77317
G1 X79.9 Y152.523 E7.78921
G1 X79.91 Y98.927 E9.57182
G1 X79.932 Y98.399 E9.5894
G1 X79.99 Y97.7 E9.61272
G1 X80.089 Y96.991 E9.63653
G1 X80.176 Y96.611 E9.6495
G1 X80.35 Y95.945 E9.6724
G1 X80.569 Y95.264 E9.69619
G1 X80.724 Y94.897 E9.70944
G1 X81.014 Y94.264 E9.7326
G1 X81.347 Y93.632 E9.75636
G1 X81.57 Y93.287 E9.77002
G1 X81.975 Y92.702 E9.79368
G1 X82.414 Y92.138 E9.81746
G1 X82.697 Y91.834 E9.83127
G1 X83.176 Y91.352 E9.85387
M204 S5000
M205 X30 Y30
G0 F3600 X83.46 Y91.634
M204 S500
M205 X20 Y20
G1 F1500 X84.146 Y91.041 E9.88403
G1 X87.296 Y88.709 E10.01439
G1 X91.427 Y85.341 E10.19166
G1 X95.369 Y81.738 E10.36929
G1 X99.112 Y77.906 E10.54745
G1 X102.071 Y74.634 E10.69418
G1 X102.564 Y74.148 E10.71721
G1 X103.049 Y73.764 E10.73778
G1 X103.61 Y73.366 E10.76066
G1 X104.497 Y72.845 E10.79487
G1 X105.117 Y72.549 E10.81772
G1 X105.758 Y72.288 E10.84074
G1 X106.114 Y72.178 E10.85314
G1 X106.799 Y71.99 E10.87676
G1 X107.476 Y71.846 E10.89978
G1 X107.833 Y71.802 E10.91175
G1 X108.523 Y71.738 E10.93479
G1 X109.086 Y71.712 E10.95354
G1 X126.292 Y71.739 E11.52581
G1 X126.984 Y71.78 E11.54887
G1 X127.417 Y71.847 E11.56344
G1 X128.139 Y71.986 E11.5879
G1 X128.811 Y72.156 E11.61095
G1 X129.18 Y72.286 E11.62397
G1 X129.851 Y72.547 E11.64791
G1 X130.481 Y72.835 E11.67095
G1 X130.801 Y73.017 E11.6832
G1 X131.373 Y73.366 E11.70548
G1 X132.183 Y73.958 E11.73885
G1 X132.693 Y74.401 E11.76132
G1 X133.186 Y74.882 E11.78423
G1 X137.602 Y79.712 E12.0019
G1 X141.417 Y83.42 E12.17885
G1 X145.43 Y86.9 E12.35552
G1 X151.232 Y91.388 E12.59949
G1 X151.755 Y91.843 E12.62254
G1 X152.23 Y92.365 E12.64602
G1 X152.678 Y92.92 E12.66974
G1 X153.081 Y93.483 E12.69277
G1 X153.272 Y93.808 E12.70531
G1 X153.613 Y94.431 E12.72893
G1 X153.91 Y95.057 E12.75197
G1 X154.044 Y95.42 E12.76484
G1 X154.266 Y96.088 E12.78825
G1 X154.446 Y96.756 E12.81127
G1 X154.555 Y97.528 E12.8372
G1 X154.683 Y99.224 E12.89377
G1 X154.7 Y99.677 E12.90884
G1 X154.69 Y153.273 E14.69145
G1 X154.669 Y153.768 E14.70793
G1 X154.611 Y154.467 E14.73126
G1 X154.437 Y155.488 E14.76571
G1 X154.263 Y156.154 E14.7886
G1 X154.05 Y156.812 E14.81161
G1 X153.913 Y157.136 E14.82331
G1 X153.623 Y157.769 E14.84647
G1 X153.298 Y158.381 E14.86951
G1 X153.101 Y158.685 E14.88156
G1 X152.696 Y159.27 E14.90523
G1 X152.27 Y159.816 E14.92826
G1 X152.023 Y160.08 E14.94028
G1 X151.542 Y160.565 E14.963
G1 X150.753 Y161.234 E14.99741
G1 X150.189 Y161.634 E15.02041
G1 X149.3 Y162.156 E15.0547
G1 X148.679 Y162.452 E15.07758
G1 X148.037 Y162.714 E15.10064
G1 X147.687 Y162.821 E15.11281
G1 X147.003 Y163.009 E15.13641
G1 X146.326 Y163.154 E15.15943
G1 X145.967 Y163.198 E15.17146
G1 X145.277 Y163.262 E15.19451
G1 X144.72 Y163.288 E15.21306
G1 X89.914 Y163.261 E17.03591
G1 X89.223 Y163.221 E17.05893
G1 X88.783 Y163.153 E17.07374
G1 X88.061 Y163.014 E17.0982
G1 X87.389 Y162.844 E17.12125
G1 X87.02 Y162.714 E17.13426
G1 X86.349 Y162.453 E17.15821
G1 X85.719 Y162.165 E17.18125
G1 X85.399 Y161.983 E17.19349
G1 X84.827 Y161.634 E17.21578
G1 X84.013 Y161.038 E17.24934
G1 X83.496 Y160.588 E17.27213
G1 X83.001 Y160.104 E17.29516
G1 X82.763 Y159.827 E17.30731
G1 X82.319 Y159.276 E17.33084
G1 X81.916 Y158.712 E17.3539
G1 X81.728 Y158.392 E17.36624
G1 X81.387 Y157.769 E17.38986
G1 X81.09 Y157.143 E17.41291
G1 X80.957 Y156.783 E17.42567
G1 X80.735 Y156.116 E17.44905
G1 X80.555 Y155.447 E17.4721
G1 X80.445 Y154.672 E17.49813
G1 X80.317 Y152.975 E17.55473
G1 X80.3 Y152.523 E17.56978
G1 X80.31 Y98.927 E19.35239
G1 X80.331 Y98.432 E19.36887
G1 X80.389 Y97.733 E19.3922
G1 X80.563 Y96.712 E19.42664
G1 X80.737 Y96.046 E19.44954
G1 X80.95 Y95.388 E19.47254
G1 X81.087 Y95.064 E19.48424
G1 X81.377 Y94.431 E19.5074
G1 X81.702 Y93.819 E19.53045
G1 X81.899 Y93.515 E19.5425
G1 X82.304 Y92.93 E19.56616
G1 X82.73 Y92.384 E19.58919
G1 X82.981 Y92.116 E19.60141
G1 X83.46 Y91.634 E19.62401
M204 S5000
M205 X30 Y30
G0 F3600 X83.744 Y91.916
M204 S500
M205 X20 Y20
G1 F1500 X84.384 Y91.362 E19.65216
G1 X87.55 Y89.018 E19.78318
G1 X91.686 Y85.646 E19.96067
G1 X95.643 Y82.029 E20.13898
G1 X99.412 Y78.17 E20.31839
G1 X102.368 Y74.902 E20.46495
G1 X102.845 Y74.433 E20.4872
G1 X103.281 Y74.091 E20.50563
G1 X103.842 Y73.693 E20.52851
G1 X104.669 Y73.206 E20.56043
G1 X105.289 Y72.91 E20.58328
G1 X106.22 Y72.564 E20.61632
G1 X106.905 Y72.376 E20.63994
G1 X107.87 Y72.2 E20.67257
G1 X108.56 Y72.136 E20.69562
G1 X109.086 Y72.112 E20.71313
G1 X126.292 Y72.139 E21.2854
G1 X126.96 Y72.18 E21.30766
G1 X127.342 Y72.24 E21.32052
G1 X128.064 Y72.379 E21.34498
G1 X128.712 Y72.544 E21.36722
G1 X129.035 Y72.659 E21.37862
G1 X129.706 Y72.92 E21.40257
G1 X130.593 Y73.359 E21.43549
G1 X131.165 Y73.708 E21.45777
G1 X131.92 Y74.26 E21.48888
G1 X132.43 Y74.703 E21.51135
G1 X132.891 Y75.152 E21.53275
G1 X137.319 Y79.995 E21.75101
G1 X141.141 Y83.709 E21.92826
G1 X145.188 Y87.219 E22.10644
G1 X150.987 Y91.705 E22.35029
G1 X151.491 Y92.145 E22.37254
G1 X151.919 Y92.617 E22.39374
G1 X152.367 Y93.172 E22.41746
G1 X152.921 Y94 E22.45059
G1 X153.262 Y94.623 E22.47422
G1 X153.548 Y95.228 E22.49647
G1 X153.664 Y95.546 E22.50773
G1 X153.886 Y96.214 E22.53114
G1 X154.059 Y96.86 E22.55339
G1 X154.156 Y97.559 E22.57686
G1 X154.284 Y99.255 E22.63343
G1 X154.3 Y99.677 E22.64747
G1 X154.29 Y153.273 E24.43009
G1 X154.271 Y153.735 E24.44546
G1 X154.213 Y154.434 E24.46879
G1 X154.05 Y155.387 E24.50095
G1 X153.876 Y156.053 E24.52384
G1 X153.549 Y156.969 E24.55619
G1 X153.259 Y157.602 E24.57935
G1 X152.772 Y158.458 E24.61211
G1 X152.367 Y159.043 E24.63577
G1 X151.739 Y159.798 E24.66844
G1 X151.258 Y160.283 E24.69116
G1 X150.522 Y160.908 E24.72327
G1 X149.958 Y161.308 E24.74627
G1 X149.128 Y161.795 E24.77827
G1 X148.507 Y162.091 E24.80116
G1 X147.581 Y162.436 E24.83402
G1 X146.897 Y162.624 E24.85762
G1 X145.93 Y162.8 E24.89031
G1 X145.24 Y162.864 E24.91335
G1 X144.72 Y162.888 E24.93067
G1 X89.914 Y162.861 E26.75352
G1 X89.246 Y162.821 E26.77578
G1 X88.858 Y162.76 E26.78884
G1 X88.136 Y162.621 E26.8133
G1 X87.488 Y162.456 E26.83554
G1 X87.165 Y162.341 E26.84694
G1 X86.494 Y162.08 E26.87089
G1 X85.607 Y161.641 E26.90381
G1 X85.035 Y161.292 E26.92609
G1 X84.275 Y160.736 E26.95741
G1 X83.758 Y160.286 E26.98021
G1 X83.075 Y159.576 E27.01298
G1 X82.631 Y159.025 E27.03651
G1 X82.079 Y158.2 E27.06953
G1 X81.738 Y157.577 E27.09315
G1 X81.452 Y156.972 E27.11541
G1 X81.337 Y156.656 E27.12659
G1 X81.115 Y155.989 E27.14997
G1 X80.942 Y155.343 E27.17222
G1 X80.844 Y154.642 E27.19576
G1 X80.716 Y152.945 E27.25236
G1 X80.7 Y152.523 E27.26641
G1 X80.71 Y98.927 E29.04902
G1 X80.729 Y98.465 E29.0644
G1 X80.787 Y97.766 E29.08773
G1 X80.95 Y96.813 E29.11988
G1 X81.124 Y96.147 E29.14278
G1 X81.451 Y95.231 E29.17513
G1 X81.741 Y94.598 E29.19829
G1 X82.228 Y93.742 E29.23104
G1 X82.633 Y93.157 E29.25471
G1 X83.265 Y92.398 E29.28756
G1 X83.744 Y91.916 E29.31016
M204 S5000
M205 X30 Y30
G0 F3600 X84.028 Y92.198
M204 S500
M205 X20 Y20
G1 F1500 X84.622 Y91.684 E29.33628
G1 X87.78 Y89.345 E29.46699
G1 X91.963 Y85.936 E29.64647
G1 X95.916 Y82.322 E29.82461
G1 X99.687 Y78.462 E30.00409
G1 X102.664 Y75.17 E30.15172
G1 X103.125 Y74.72 E30.17314
G1 X103.512 Y74.417 E30.18949
G1 X104.073 Y74.019 E30.21237
G1 X104.842 Y73.567 E30.24204
G1 X105.462 Y73.271 E30.26489
G1 X106.326 Y72.949 E30.29556
G1 X107.011 Y72.761 E30.31918
G1 X107.907 Y72.598 E30.34947
G1 X108.597 Y72.534 E30.37252
G1 X109.085 Y72.512 E30.38877
G1 X126.291 Y72.539 E30.96104
G1 X126.935 Y72.58 E30.9825
G1 X127.266 Y72.633 E30.99365
G1 X127.988 Y72.772 E31.01811
G1 X128.89 Y73.032 E31.04933
G1 X129.561 Y73.293 E31.07328
G1 X130.384 Y73.7 E31.10381
G1 X130.956 Y74.049 E31.1261
G1 X131.658 Y74.562 E31.15502
G1 X132.168 Y75.005 E31.17749
G1 X132.596 Y75.422 E31.19736
G1 X137.036 Y80.278 E31.41621
G1 X140.874 Y84.008 E31.59422
G1 X144.916 Y87.514 E31.77218
G1 X150.743 Y92.021 E32.01719
G1 X151.227 Y92.446 E32.03862
G1 X151.607 Y92.868 E32.05751
G1 X152.055 Y93.423 E32.08123
G1 X152.57 Y94.192 E32.11201
G1 X152.911 Y94.815 E32.13563
G1 X153.285 Y95.672 E32.16673
G1 X153.507 Y96.34 E32.19015
G1 X153.672 Y96.963 E32.21158
G1 X153.757 Y97.589 E32.23259
G1 X153.885 Y99.285 E32.28916
G1 X153.9 Y99.677 E32.30221
G1 X153.89 Y153.273 E34.08482
G1 X153.872 Y153.702 E34.0991
G1 X153.814 Y154.401 E34.12243
G1 X153.663 Y155.285 E34.15226
G1 X153.489 Y155.951 E34.17515
G1 X153.185 Y156.803 E34.20524
G1 X152.895 Y157.436 E34.2284
G1 X152.443 Y158.23 E34.25879
G1 X152.038 Y158.815 E34.28245
G1 X151.455 Y159.517 E34.3128
G1 X150.974 Y160.002 E34.33552
G1 X150.29 Y160.582 E34.36535
G1 X149.726 Y160.982 E34.38835
G1 X148.955 Y161.434 E34.41807
G1 X148.334 Y161.73 E34.44095
G1 X147.475 Y162.05 E34.47144
G1 X146.791 Y162.238 E34.49503
G1 X145.893 Y162.402 E34.5254
G1 X145.203 Y162.466 E34.54844
G1 X144.72 Y162.488 E34.56453
G1 X89.914 Y162.461 E36.38738
G1 X89.271 Y162.421 E36.40881
G1 X88.934 Y162.367 E36.42016
G1 X88.212 Y162.228 E36.44461
G1 X87.31 Y161.968 E36.47584
G1 X86.639 Y161.707 E36.49978
G1 X85.816 Y161.3 E36.53032
G1 X85.244 Y160.951 E36.55261
G1 X84.538 Y160.434 E36.58171
G1 X84.021 Y159.984 E36.60451
G1 X83.386 Y159.325 E36.63495
G1 X82.942 Y158.774 E36.65848
G1 X82.43 Y158.008 E36.68913
G1 X82.089 Y157.385 E36.71275
G1 X81.716 Y156.53 E36.74377
G1 X81.494 Y155.863 E36.76716
G1 X81.329 Y155.24 E36.78859
G1 X81.243 Y154.612 E36.80967
G1 X81.115 Y152.915 E36.86628
G1 X81.1 Y152.523 E36.87932
G1 X81.11 Y98.927 E38.66193
G1 X81.128 Y98.498 E38.67621
G1 X81.186 Y97.799 E38.69954
G1 X81.337 Y96.915 E38.72937
G1 X81.511 Y96.249 E38.75227
G1 X81.815 Y95.397 E38.78235
G1 X82.105 Y94.764 E38.80551
G1 X82.557 Y93.97 E38.8359
G1 X82.962 Y93.385 E38.85956
G1 X83.549 Y92.68 E38.89008
G1 X84.028 Y92.198 E38.91268
M204 S5000
M205 X30 Y30
G1 F2400 E33.91268
;MESH:CD-Catch-Tray.stl
G0 F3600 X87.215 Y95.41
G0 X88.123 Y96.317
G0 X89.653 Y96.48
G0 X89.678 Y96.576
M204 S500
M205 X20 Y20
;TYPE:WALL-INNER
G1 F2400 E38.91268
G1 F1500 X89.097 Y96.817 E38.9336
G1 X88.599 Y97.199 E38.95447
G1 X88.217 Y97.697 E38.97535
G1 X87.976 Y98.278 E38.99627
G1 X87.9 Y98.861 E39.01582
G1 X87.9 Y153.339 E40.82777
G1 X87.976 Y153.922 E40.84733
G1 X88.217 Y154.503 E40.86825
G1 X88.599 Y155.001 E40.88912
G1 X89.097 Y155.383 E40.91
G1 X89.678 Y155.624 E40.93092
G1 X90.261 Y155.7 E40.95047
G1 X144.739 Y155.7 E42.76242
G1 X145.322 Y155.624 E42.78197
G1 X145.903 Y155.383 E42.80289
G1 X146.401 Y155.001 E42.82377
G1 X146.783 Y154.503 E42.84464
G1 X147.024 Y153.922 E42.86556
G1 X147.1 Y153.339 E42.88512
G1 X147.1 Y98.861 E44.69706
G1 X147.024 Y98.278 E44.71662
G1 X146.783 Y97.697 E44.73754
G1 X146.401 Y97.199 E44.75841
G1 X145.903 Y96.817 E44.77929
G1 X145.322 Y96.576 E44.80021
G1 X144.739 Y96.5 E44.81977
G1 X90.261 Y96.5 E46.63171
G1 X89.678 Y96.576 E46.65127
M204 S5000
M205 X30 Y30
G0 F3600 X89.653 Y96.48
G0 X129.23 Y95.57
G0 X129.3 Y95.5
M204 S500
M205 X20 Y20
G1 F1500 X144.682 Y95.5 E47.16287
G1 X145.29 Y95.553 E47.18317
G1 X145.862 Y95.706 E47.20287
G1 X146.392 Y95.953 E47.22231
G1 X146.889 Y96.302 E47.24251
G1 X147.298 Y96.711 E47.26175
G1 X147.647 Y97.208 E47.28195
G1 X147.894 Y97.738 E47.3014
G1 X148.047 Y98.31 E47.32109
G1 X148.1 Y98.912 E47.34119
G1 X148.1 Y153.288 E49.14974
G1 X148.047 Y153.89 E49.16984
G1 X147.894 Y154.462 E49.18954
G1 X147.647 Y154.992 E49.20899
G1 X147.298 Y155.489 E49.22919
G1 X146.889 Y155.898 E49.24842
G1 X146.392 Y156.247 E49.26862
G1 X145.862 Y156.494 E49.28807
G1 X145.29 Y156.647 E49.30776
G1 X144.682 Y156.7 E49.32806
G1 X90.318 Y156.7 E51.13622
G1 X89.71 Y156.647 E51.15652
G1 X89.138 Y156.494 E51.17621
G1 X88.608 Y156.247 E51.19566
G1 X88.111 Y155.898 E51.21586
G1 X87.702 Y155.489 E51.23509
G1 X87.353 Y154.992 E51.25529
G1 X87.106 Y154.462 E51.27474
G1 X86.953 Y153.89 E51.29444
G1 X86.9 Y153.288 E51.31454
G1 X86.9 Y98.912 E53.12309
G1 X86.953 Y98.31 E53.14319
G1 X87.106 Y97.738 E53.16288
G1 X87.353 Y97.208 E53.18233
G1 X87.702 Y96.711 E53.20253
G1 X88.111 Y96.302 E53.22177
G1 X88.608 Y95.953 E53.24197
G1 X89.138 Y95.706 E53.26141
G1 X89.71 Y95.553 E53.28111
G1 X90.318 Y95.5 E53.30141
G1 X105.7 Y95.5 E53.81301
G1 X105.7 Y81.712 E54.2716
G1 X105.753 Y81.11 E54.2917
G1 X105.906 Y80.538 E54.3114
G1 X106.153 Y80.008 E54.33085
G1 X106.502 Y79.511 E54.35105
G1 X106.911 Y79.102 E54.37028
G1 X107.408 Y78.753 E54.39048
G1 X107.938 Y78.506 E54.40993
G1 X108.51 Y78.353 E54.42962
