;FLAVOR:Marlin
;TIME:3144
;Filament used: 1.23991m
;Layer height: 0.2
;Generated with Cura_SteamEngine 3.6.0
M140 S65
M105
M190 S65
M104 S200
M105
M109 S200
M82 ;absolute extrusion mode
; Ender 3 Custom Start G-code
G28 ; Home all axes
G92 E0 ; Reset Extruder
G1 Z2.0 F3000 ; Move Z Axis up little to prevent scratching of Heat Bed
G1 X0.1 Y20 Z0.3 F5000.0 ; Move to start position
G1 X0.1 Y200.0 Z0.3 F1500.0 E15 ; Draw the first line
G1 X0.4 Y200.0 Z0.3 F5000.0 ; Move to side a little
G1 X0.4 Y20 Z0.3 F1500.0 E30 ; Draw the second line
G92 E0 ; Reset Extruder
G1 Z2.0 F3000 ; Move Z Axis up little to prevent scratching of Heat Bed
; End of custom start GCode
G92 E0
G1 F2400 E-5
;LAYER_COUNT:27
;LAYER:0
M107
M205 X30 Y30
G0 F750 X83.705 Y100.557 Z0.2
M205 X20 Y20
;TYPE:SKIRT
G1 F2400 E0
G1 F750 X84.016 Y100.323 E0.01294
G1 X84.58 Y99.923 E0.03594
G1 X85.185 Y99.542 E0.05972
G1 X85.525 Y99.367 E0.07244
G1 X86.145 Y99.071 E0.09529
G1 X86.806 Y98.8 E0.11905
G1 X87.208 Y98.675 E0.13305
G1 X87.893 Y98.487 E0.15668
G1 X88.592 Y98.337 E0.18046
G1 X88.996 Y98.286 E0.194
G1 X89.686 Y98.222 E0.21705
G1 X90.28 Y98.195 E0.23683
G1 X145.086 Y98.222 E2.05968
G1 X145.8 Y98.262 E2.08347
G1 X146.293 Y98.337 E2.10005
G1 X147.015 Y98.476 E2.12451
G1 X147.709 Y98.651 E2.14831
G1 X148.125 Y98.796 E2.16297
G1 X148.796 Y99.057 E2.18691
G1 X149.447 Y99.353 E2.2107
G1 X149.803 Y99.555 E2.22431
G1 X150.365 Y99.897 E2.24619
G1 X151.226 Y100.525 E2.28164
G1 X151.746 Y100.975 E2.30451
G1 X152.26 Y101.472 E2.32829
G1 X152.535 Y101.791 E2.3423
G1 X152.986 Y102.349 E2.36616
G1 X153.404 Y102.93 E2.38997
G1 X153.623 Y103.299 E2.40424
G1 X153.964 Y103.922 E2.42786
G1 X154.272 Y104.568 E2.45166
G1 X154.456 Y105.077 E2.46967
G1 X154.729 Y105.946 E2.49996
G1 X154.905 Y106.639 E2.52374
G1 X154.994 Y107.254 E2.54441
G1 X155.058 Y107.922 E2.56673
G1 X155.087 Y108.535 E2.58714
G1 X155.061 Y163.369 E4.41093
G1 X155.021 Y164.083 E4.43471
G1 X154.946 Y164.576 E4.4513
G1 X154.807 Y165.298 E4.47575
G1 X154.632 Y165.992 E4.49956
G1 X154.487 Y166.408 E4.51421
G1 X154.226 Y167.079 E4.53816
G1 X153.93 Y167.73 E4.56194
G1 X153.724 Y168.092 E4.5758
G1 X153.375 Y168.664 E4.59808
G1 X152.969 Y169.253 E4.62188
G1 X152.742 Y169.53 E4.63379
G1 X152.296 Y170.043 E4.6564
G1 X151.797 Y170.556 E4.6802
G1 X151.364 Y170.92 E4.69901
G1 X145.853 Y175.152 E4.93012
G1 X141.85 Y178.61 E5.10606
G1 X138.005 Y182.328 E5.28395
G1 X136.216 Y184.212 E5.37037
G1 X133.226 Y187.518 E5.51863
G1 X132.717 Y188.021 E5.54243
G1 X132.182 Y188.445 E5.56513
G1 X131.621 Y188.843 E5.58801
G1 X131.016 Y189.223 E5.61177
G1 X130.672 Y189.4 E5.62464
G1 X130.051 Y189.696 E5.64752
G1 X129.389 Y189.967 E5.67131
G1 X128.994 Y190.09 E5.68507
G1 X128.314 Y190.277 E5.70853
G1 X127.615 Y190.428 E5.73231
G1 X127.227 Y190.477 E5.74532
G1 X126.569 Y190.54 E5.76731
G1 X125.949 Y190.569 E5.78795
G1 X108.7 Y190.543 E6.36165
G1 X107.986 Y190.502 E6.38544
G1 X107.497 Y190.427 E6.4019
G1 X106.782 Y190.289 E6.42612
G1 X106.089 Y190.114 E6.44989
G1 X105.675 Y189.97 E6.46447
G1 X105.004 Y189.709 E6.48841
G1 X104.353 Y189.413 E6.5122
G1 X103.991 Y189.207 E6.52605
G1 X103.419 Y188.858 E6.54834
G1 X102.83 Y188.452 E6.57213
G1 X102.55 Y188.222 E6.58418
G1 X102.033 Y187.772 E6.60698
G1 X101.512 Y187.264 E6.63118
G1 X97.113 Y182.453 E6.848
G1 X93.305 Y178.752 E7.02462
G1 X89.316 Y175.292 E7.20025
G1 X83.523 Y170.811 E7.44384
G1 X82.983 Y170.343 E7.46761
G1 X82.459 Y169.769 E7.49346
G1 X82.011 Y169.214 E7.51718
G1 X81.594 Y168.633 E7.54097
G1 X81.377 Y168.267 E7.55512
G1 X81.036 Y167.644 E7.57874
G1 X80.728 Y166.998 E7.60255
G1 X80.578 Y166.592 E7.61694
G1 X80.356 Y165.925 E7.64032
G1 X80.168 Y165.235 E7.66411
G1 X80.046 Y164.385 E7.69267
G1 X79.918 Y162.688 E7.74927
G1 X79.9 Y162.206 E7.76532
G1 X79.91 Y108.613 E9.54783
G1 X79.932 Y108.08 E9.56557
G1 X79.991 Y107.375 E9.5891
G1 X80.091 Y106.667 E9.61288
G1 X80.176 Y106.293 E9.62564
G1 X80.348 Y105.634 E9.64829
G1 X80.567 Y104.953 E9.67208
G1 X80.72 Y104.591 E9.68516
G1 X81.011 Y103.954 E9.70845
G1 X81.344 Y103.321 E9.73224
G1 X81.57 Y102.97 E9.74612
G1 X81.975 Y102.385 E9.76979
G1 X82.414 Y101.821 E9.79356
G1 X82.693 Y101.521 E9.80718
G1 X83.174 Y101.036 E9.8299
G1 X83.705 Y100.557 E9.85369
M205 X30 Y30
G0 X84.247 Y100.649
M205 X20 Y20
G1 X84.811 Y100.249 E9.87669
G1 X85.697 Y99.728 E9.91087
G1 X86.317 Y99.432 E9.93372
G1 X86.958 Y99.171 E9.95674
G1 X87.314 Y99.061 E9.96914
G1 X87.999 Y98.873 E9.99276
G1 X88.676 Y98.729 E10.01578
G1 X89.033 Y98.685 E10.02775
G1 X89.723 Y98.621 E10.05079
G1 X90.28 Y98.595 E10.06934
G1 X145.086 Y98.622 E11.89219
G1 X145.777 Y98.662 E11.91522
G1 X146.217 Y98.73 E11.93002
G1 X146.939 Y98.869 E11.95448
G1 X147.611 Y99.039 E11.97753
G1 X147.98 Y99.169 E11.99055
G1 X148.651 Y99.43 E12.01449
G1 X149.281 Y99.718 E12.03753
G1 X149.595 Y99.896 E12.04954
G1 X150.157 Y100.238 E12.07142
G1 X150.964 Y100.827 E12.10465
G1 X151.484 Y101.277 E12.12752
G1 X151.981 Y101.76 E12.15057
G1 X152.224 Y102.042 E12.16295
G1 X152.675 Y102.6 E12.18682
G1 X153.079 Y103.163 E12.20986
G1 X153.272 Y103.491 E12.22252
G1 X153.613 Y104.114 E12.24614
G1 X153.91 Y104.74 E12.26919
G1 X154.074 Y105.197 E12.28534
G1 X154.347 Y106.066 E12.31563
G1 X154.516 Y106.737 E12.33865
G1 X154.596 Y107.292 E12.3573
G1 X154.66 Y107.96 E12.37962
G1 X154.687 Y108.535 E12.39876
G1 X154.661 Y163.369 E14.22255
G1 X154.621 Y164.06 E14.24557
G1 X154.553 Y164.5 E14.26038
G1 X154.414 Y165.222 E14.28483
G1 X154.244 Y165.894 E14.30789
G1 X154.114 Y166.263 E14.3209
G1 X153.853 Y166.934 E14.34485
G1 X153.565 Y167.564 E14.36789
G1 X153.383 Y167.884 E14.38013
G1 X153.034 Y168.456 E14.40242
G1 X152.44 Y169.268 E14.43588
G1 X151.994 Y169.781 E14.45849
G1 X151.51 Y170.276 E14.48151
G1 X151.12 Y170.603 E14.49844
G1 X145.603 Y174.84 E14.72981
G1 X141.574 Y178.32 E14.90688
G1 X137.731 Y182.036 E15.08468
G1 X135.893 Y183.972 E15.17347
G1 X132.929 Y187.249 E15.32043
G1 X132.436 Y187.735 E15.34346
G1 X131.951 Y188.119 E15.36403
G1 X131.39 Y188.517 E15.38691
G1 X130.5 Y189.039 E15.42123
G1 X129.879 Y189.335 E15.44411
G1 X129.237 Y189.597 E15.46717
G1 X128.888 Y189.704 E15.47931
G1 X128.208 Y189.891 E15.50277
G1 X127.189 Y190.079 E15.53723
G1 X126.531 Y190.142 E15.55922
G1 X125.95 Y190.169 E15.57856
G1 X108.701 Y190.143 E16.15227
G1 X108.01 Y190.102 E16.17529
G1 X107.573 Y190.034 E16.19
G1 X106.858 Y189.896 E16.21422
G1 X106.187 Y189.726 E16.23724
G1 X105.82 Y189.597 E16.25018
G1 X105.149 Y189.336 E16.27413
G1 X104.519 Y189.048 E16.29717
G1 X104.199 Y188.866 E16.30941
G1 X103.627 Y188.517 E16.3317
G1 X102.813 Y187.921 E16.36525
G1 X102.296 Y187.471 E16.38805
G1 X101.807 Y186.994 E16.41077
G1 X97.396 Y182.17 E16.62818
G1 X93.582 Y178.462 E16.80511
G1 X89.569 Y174.982 E16.98177
G1 X83.768 Y170.495 E17.2257
G1 X83.246 Y170.04 E17.24873
G1 X82.77 Y169.518 E17.27223
G1 X82.322 Y168.963 E17.29595
G1 X81.919 Y168.4 E17.31898
G1 X81.728 Y168.075 E17.33151
G1 X81.387 Y167.452 E17.35514
G1 X81.09 Y166.826 E17.37818
G1 X80.957 Y166.466 E17.39095
G1 X80.735 Y165.799 E17.41433
G1 X80.555 Y165.13 E17.43737
G1 X80.445 Y164.355 E17.46341
G1 X80.317 Y162.658 E17.52001
G1 X80.3 Y162.206 E17.53505
G1 X80.31 Y108.613 E19.31756
G1 X80.331 Y108.114 E19.33417
G1 X80.39 Y107.409 E19.3577
G1 X80.563 Y106.394 E19.39195
G1 X80.735 Y105.735 E19.4146
G1 X81.084 Y104.757 E19.44914
G1 X81.375 Y104.12 E19.47243
G1 X81.698 Y103.508 E19.49545
G1 X81.899 Y103.198 E19.50774
G1 X82.304 Y102.613 E19.5314
G1 X82.73 Y102.067 E19.55444
G1 X82.977 Y101.803 E19.56646
G1 X83.458 Y101.318 E19.58918
G1 X84.247 Y100.649 E19.62359
M205 X30 Y30
G0 X84.478 Y100.975
M205 X20 Y20
G1 X85.042 Y100.575 E19.64658
G1 X85.869 Y100.089 E19.67849
G1 X86.489 Y99.793 E19.70134
G1 X87.42 Y99.447 E19.73437
G1 X88.105 Y99.259 E19.758
G1 X89.07 Y99.083 E19.79062
G1 X89.76 Y99.019 E19.81367
G1 X90.28 Y98.995 E19.83099
G1 X145.086 Y99.022 E21.65384
G1 X145.754 Y99.062 E21.6761
G1 X146.142 Y99.123 E21.68916
G1 X146.864 Y99.262 E21.71362
G1 X147.512 Y99.427 E21.73586
G1 X147.835 Y99.542 E21.74726
G1 X148.506 Y99.803 E21.77121
G1 X149.387 Y100.238 E21.80389
G1 X149.949 Y100.58 E21.82577
G1 X150.703 Y101.129 E21.85679
G1 X151.223 Y101.579 E21.87966
G1 X151.913 Y102.294 E21.91271
G1 X152.364 Y102.852 E21.93657
G1 X152.921 Y103.683 E21.96985
G1 X153.262 Y104.306 E21.99347
G1 X153.548 Y104.911 E22.01573
G1 X153.693 Y105.317 E22.03007
G1 X153.966 Y106.186 E22.06036
G1 X154.128 Y106.835 E22.08261
G1 X154.197 Y107.33 E22.09923
G1 X154.261 Y107.998 E22.12155
G1 X154.287 Y108.535 E22.13943
G1 X154.261 Y163.369 E23.96322
G1 X154.221 Y164.036 E23.98544
G1 X154.16 Y164.425 E23.99854
G1 X154.021 Y165.147 E24.023
G1 X153.856 Y165.795 E24.04524
G1 X153.741 Y166.118 E24.05664
G1 X153.48 Y166.789 E24.08059
G1 X153.041 Y167.676 E24.1135
G1 X152.692 Y168.248 E24.13579
G1 X152.138 Y169.005 E24.16699
G1 X151.692 Y169.518 E24.1896
G1 X151.224 Y169.996 E24.21185
G1 X150.877 Y170.285 E24.22687
G1 X145.354 Y174.526 E24.45847
G1 X141.309 Y178.021 E24.63627
G1 X137.422 Y181.779 E24.8161
G1 X135.628 Y183.669 E24.90277
G1 X132.632 Y186.981 E25.05131
G1 X132.155 Y187.45 E25.07356
G1 X131.719 Y187.792 E25.09199
G1 X131.158 Y188.19 E25.11487
G1 X130.328 Y188.678 E25.14689
G1 X129.707 Y188.974 E25.16977
G1 X128.782 Y189.319 E25.20261
G1 X128.102 Y189.506 E25.22606
G1 X127.151 Y189.681 E25.25823
G1 X126.493 Y189.744 E25.28021
G1 X125.951 Y189.769 E25.29826
G1 X108.702 Y189.743 E25.87196
G1 X108.034 Y189.702 E25.89422
G1 X107.649 Y189.642 E25.90718
G1 X106.934 Y189.504 E25.9314
G1 X106.286 Y189.338 E25.95365
G1 X105.965 Y189.224 E25.96498
G1 X105.294 Y188.963 E25.98893
G1 X104.407 Y188.524 E26.02184
G1 X103.835 Y188.175 E26.04413
G1 X103.075 Y187.619 E26.07545
G1 X102.558 Y187.169 E26.09825
G1 X102.102 Y186.724 E26.11944
G1 X97.679 Y181.887 E26.33744
G1 X93.858 Y178.173 E26.51467
G1 X89.822 Y174.672 E26.69237
G1 X84.013 Y170.179 E26.93663
G1 X83.509 Y169.738 E26.9589
G1 X83.081 Y169.266 E26.98009
G1 X82.633 Y168.711 E27.00382
G1 X82.079 Y167.883 E27.03695
G1 X81.738 Y167.26 E27.06057
G1 X81.452 Y166.655 E27.08283
G1 X81.337 Y166.339 E27.09402
G1 X81.115 Y165.672 E27.1174
G1 X80.942 Y165.026 E27.13964
G1 X80.844 Y164.325 E27.16318
G1 X80.716 Y162.628 E27.21978
G1 X80.7 Y162.206 E27.23383
G1 X80.71 Y108.613 E29.01634
G1 X80.73 Y108.147 E29.03185
G1 X80.789 Y107.442 E29.05538
G1 X80.951 Y106.495 E29.08734
G1 X81.123 Y105.836 E29.10999
G1 X81.447 Y104.923 E29.14221
G1 X81.738 Y104.286 E29.16551
G1 X82.228 Y103.425 E29.19846
G1 X82.633 Y102.84 E29.22212
G1 X83.261 Y102.085 E29.25478
G1 X83.742 Y101.6 E29.2775
G1 X84.478 Y100.975 E29.30962
M205 X30 Y30
G0 X84.71 Y101.301
M205 X20 Y20
G1 X85.274 Y100.901 E29.33262
G1 X86.042 Y100.45 E29.36224
G1 X86.662 Y100.154 E29.38509
G1 X87.526 Y99.832 E29.41576
G1 X88.211 Y99.644 E29.43938
G1 X89.107 Y99.481 E29.46967
G1 X89.797 Y99.417 E29.49272
G1 X90.28 Y99.395 E29.5088
G1 X145.086 Y99.422 E31.33166
G1 X145.729 Y99.462 E31.35308
G1 X146.066 Y99.516 E31.36444
G1 X146.788 Y99.655 E31.38889
G1 X147.69 Y99.915 E31.42011
G1 X148.361 Y100.176 E31.44406
G1 X149.179 Y100.58 E31.4744
G1 X149.741 Y100.922 E31.49629
G1 X150.441 Y101.432 E31.52509
G1 X150.961 Y101.882 E31.54796
G1 X151.602 Y102.545 E31.57864
G1 X152.053 Y103.103 E31.6025
G1 X152.57 Y103.875 E31.6334
G1 X152.911 Y104.498 E31.65702
G1 X153.185 Y105.082 E31.67848
G1 X153.311 Y105.436 E31.69098
G1 X153.584 Y106.305 E31.72127
G1 X153.739 Y106.931 E31.74272
G1 X153.799 Y107.368 E31.75739
G1 X153.863 Y108.036 E31.77971
G1 X153.887 Y108.534 E31.7963
G1 X153.861 Y163.368 E33.62008
G1 X153.821 Y164.012 E33.64154
G1 X153.767 Y164.349 E33.65289
G1 X153.628 Y165.071 E33.67735
G1 X153.368 Y165.973 E33.70857
G1 X153.107 Y166.644 E33.73252
G1 X152.7 Y167.467 E33.76306
G1 X152.351 Y168.039 E33.78534
G1 X151.836 Y168.743 E33.81435
G1 X151.39 Y169.256 E33.83696
G1 X150.938 Y169.715 E33.85839
G1 X150.633 Y169.968 E33.87157
G1 X145.094 Y174.222 E34.10386
G1 X141.042 Y177.722 E34.28194
G1 X137.148 Y181.487 E34.4621
G1 X135.345 Y183.386 E34.54919
G1 X132.336 Y186.713 E34.69839
G1 X131.875 Y187.163 E34.71982
G1 X131.488 Y187.466 E34.73617
G1 X130.927 Y187.864 E34.75905
G1 X130.155 Y188.317 E34.78882
G1 X129.534 Y188.613 E34.8117
G1 X128.676 Y188.933 E34.84215
G1 X127.996 Y189.12 E34.86561
G1 X127.113 Y189.282 E34.89547
G1 X126.455 Y189.345 E34.91746
G1 X125.951 Y189.369 E34.93424
G1 X108.702 Y189.343 E35.50794
G1 X108.059 Y189.302 E35.52937
G1 X107.725 Y189.249 E35.54062
G1 X107.01 Y189.111 E35.56484
G1 X106.11 Y188.851 E35.596
G1 X105.439 Y188.59 E35.61994
G1 X104.616 Y188.183 E35.65048
G1 X104.044 Y187.834 E35.67277
G1 X103.338 Y187.317 E35.70187
G1 X102.821 Y186.867 E35.72467
G1 X102.397 Y186.454 E35.74436
G1 X97.963 Y181.604 E35.96292
G1 X94.125 Y177.874 E36.14093
G1 X90.083 Y174.368 E36.31889
G1 X84.257 Y169.862 E36.56386
G1 X83.773 Y169.437 E36.58528
G1 X83.393 Y169.015 E36.60417
G1 X82.945 Y168.46 E36.62789
G1 X82.43 Y167.691 E36.65868
G1 X82.089 Y167.068 E36.6823
G1 X81.716 Y166.213 E36.71332
G1 X81.494 Y165.546 E36.7367
G1 X81.329 Y164.923 E36.75814
G1 X81.243 Y164.295 E36.77922
G1 X81.115 Y162.598 E36.83582
G1 X81.1 Y162.206 E36.84887
G1 X81.11 Y108.613 E38.63138
G1 X81.128 Y108.18 E38.6458
G1 X81.187 Y107.475 E38.66933
G1 X81.338 Y106.596 E38.69899
G1 X81.51 Y105.937 E38.72164
G1 X81.811 Y105.089 E38.75157
G1 X82.102 Y104.452 E38.77487
G1 X82.557 Y103.653 E38.80545
G1 X82.962 Y103.068 E38.82911
G1 X83.545 Y102.366 E38.85946
G1 X84.026 Y101.881 E38.88218
G1 X84.71 Y101.301 E38.91201
M205 X30 Y30
G1 F2400 E33.91201
;MESH:CD-Catch-Tray.stl
G0 F750 X87.358 Y104.968
G0 X87.866 Y105.691
G0 X89.037 Y105.533
G0 X89.075 Y105.625
M205 X20 Y20
;TYPE:WALL-OUTER
G1 F2400 E38.91201
G1 F750 X88.521 Y105.922 E38.93292
G1 X88.037 Y106.32 E38.95376
G1 X87.639 Y106.804 E38.9746
G1 X87.342 Y107.358 E38.99551
G1 X87.161 Y107.959 E39.01638
G1 X87.1 Y108.573 E39.0369
G1 X87.1 Y162.993 E40.84692
G1 X87.161 Y163.607 E40.86744
G1 X87.342 Y164.208 E40.88832
G1 X87.639 Y164.762 E40.90923
G1 X88.037 Y165.246 E40.93007
G1 X88.521 Y165.645 E40.95093
G1 X89.075 Y165.941 E40.97182
G1 X89.676 Y166.122 E40.9927
G1 X90.29 Y166.183 E41.01322
G1 X105.9 Y166.183 E41.53241
G1 X105.9 Y180.193 E41.99839
G1 X105.961 Y180.807 E42.01891
G1 X106.142 Y181.408 E42.03978
G1 X106.439 Y181.962 E42.06069
G1 X106.837 Y182.446 E42.08153
G1 X107.321 Y182.845 E42.1024
G1 X107.875 Y183.141 E42.12329
G1 X108.476 Y183.322 E42.14416
G1 X109.09 Y183.383 E42.16469
G1 X125.91 Y183.383 E42.72412
G1 X126.524 Y183.322 E42.74464
G1 X127.125 Y183.141 E42.76552
G1 X127.679 Y182.845 E42.78641
G1 X128.163 Y182.446 E42.80727
G1 X128.561 Y181.962 E42.82812
G1 X128.858 Y181.408 E42.84902
G1 X129.039 Y180.807 E42.8699
G1 X129.1 Y180.193 E42.89042
G1 X129.1 Y166.183 E43.3564
G1 X144.71 Y166.183 E43.87559
G1 X145.324 Y166.122 E43.89611
G1 X145.925 Y165.941 E43.91698
G1 X146.479 Y165.645 E43.93788
G1 X146.963 Y165.246 E43.95874
G1 X147.361 Y164.762 E43.97958
G1 X147.658 Y164.208 E44.00049
G1 X147.839 Y163.607 E44.02136
G1 X147.9 Y162.993 E44.04189
G1 X147.9 Y108.573 E45.8519
G1 X147.839 Y107.959 E45.87242
G1 X147.658 Y107.358 E45.8933
G1 X147.361 Y106.804 E45.91421
G1 X146.963 Y106.32 E45.93505
G1 X146.479 Y105.922 E45.95589
G1 X145.925 Y105.625 E45.9768
G1 X145.324 Y105.444 E45.99767
G1 X144.71 Y105.383 E46.0182
G1 X90.29 Y105.383 E47.82821
G1 X89.676 Y105.444 E47.84874
G1 X89.075 Y105.625 E47.86961
M205 X30 Y30
G0 X88.899 Y105.719
G0 X88.853 Y105.631
G0 X88.009 Y106.292
G0 X87.606 Y106.782
G0 X87.306 Y107.343
G0 X87.122 Y107.952
G0 X87.061 Y108.572
G0 X87.061 Y162.994
G0 X87.122 Y163.614
G0 X87.306 Y164.223
G0 X87.606 Y164.784
G0 X88.009 Y165.274
G0 X88.499 Y165.678
G0 X89.06 Y165.977
G0 X89.669 Y166.161
G0 X90.289 Y166.222
G0 X105.872 Y166.211
G0 X105.861 Y180.194
G0 X105.922 Y180.814
G0 X106.106 Y181.423
G0 X106.406 Y181.984
G0 X106.809 Y182.474
G0 X107.299 Y182.878
G0 X107.86 Y183.177
G0 X108.469 Y183.361
G0 X109.089 Y183.422
G0 X125.911 Y183.422
G0 X126.531 Y183.361
G0 X127.14 Y183.177
G0 X127.701 Y182.878
G0 X128.191 Y182.474
G0 X128.594 Y181.984
G0 X128.894 Y181.423
G0 X129.078 Y180.814
