;FLAVOR:Marlin
;TIME:3964
;Filament used: 3.61923m
;Layer height: 0.2
;Generated with Cura_SteamEngine 3.6.0
M140 S65
M105
M190 S65
M104 S200
M105
M109 S200
M82 ;absolute extrusion mode
; Ender 3 Custom Start G-code
G28 ; Home all axes
G92 E0 ; Reset Extruder
G1 Z2.0 F3000 ; Move Z Axis up little to prevent scratching of Heat Bed
G1 X0.1 Y20 Z0.3 F5000.0 ; Move to start position
G1 X0.1 Y200.0 Z0.3 F1500.0 E15 ; Draw the first line
G1 X0.4 Y200.0 Z0.3 F5000.0 ; Move to side a little
G1 X0.4 Y20 Z0.3 F1500.0 E30 ; Draw the second line
G92 E0 ; Reset Extruder
G1 Z2.0 F3000 ; Move Z Axis up little to prevent scratching of Heat Bed
; End of custom start GCode
G92 E0
G1 F2400 E-5
;LAYER_COUNT:341
;LAYER:0
M107
M204 S5000
M205 X30 Y30
G0 F3600 X105.432 Y104.706 Z0.2
M204 S500
M205 X20 Y20
;TYPE:SKIRT
G1 F2400 E0
G1 F1500 X105.928 Y104.256 E0.02227
G1 X106.848 Y103.506 E0.06175
G1 X107.372 Y103.122 E0.08336
G1 X108.286 Y102.52 E0.11976
G1 X109.006 Y102.11 E0.14732
G1 X110.64 Y101.315 E0.20776
G1 X111.44 Y100.99 E0.23648
G1 X112.568 Y100.619 E0.27597
G1 X113.214 Y100.444 E0.29823
G1 X114.341 Y100.2 E0.33659
G1 X115.141 Y100.079 E0.3635
G1 X116.834 Y99.932 E0.42002
G1 X117.679 Y99.915 E0.44813
G1 X118.888 Y99.97 E0.48838
G1 X119.853 Y100.088 E0.52072
G1 X122.051 Y100.528 E0.59527
G1 X123.006 Y100.797 E0.62827
G1 X124.117 Y101.206 E0.66765
G1 X124.714 Y101.461 E0.68924
G1 X125.734 Y101.959 E0.72699
G1 X126.442 Y102.362 E0.75409
G1 X127.837 Y103.279 E0.80961
G1 X128.47 Y103.754 E0.83594
G1 X129.318 Y104.476 E0.87298
G1 X129.813 Y104.945 E0.89566
G1 X130.691 Y105.871 E0.9381
G1 X131.141 Y106.4 E0.9612
G1 X131.831 Y107.307 E0.9991
G1 X132.365 Y108.136 E1.0319
G1 X133.474 Y110.185 E1.10939
G1 X133.865 Y111.057 E1.14118
G1 X134.202 Y111.99 E1.17417
G1 X134.384 Y112.579 E1.19468
G1 X134.687 Y113.764 E1.23536
G1 X134.822 Y114.445 E1.25845
G1 X134.98 Y115.552 E1.29564
G1 X135.039 Y116.196 E1.31715
G1 X135.086 Y117.351 E1.3556
G1 X135.077 Y118.031 E1.37822
G1 X134.994 Y119.292 E1.42025
G1 X134.886 Y120.116 E1.44789
G1 X134.568 Y121.721 E1.50231
G1 X134.361 Y122.502 E1.52918
G1 X133.988 Y123.62 E1.56838
G1 X133.746 Y124.237 E1.59043
G1 X133.271 Y125.285 E1.6287
G1 X132.873 Y126.029 E1.65676
G1 X131.933 Y127.537 E1.71586
G1 X131.347 Y128.332 E1.74871
G1 X130.238 Y129.617 E1.80517
G1 X129.665 Y130.201 E1.83238
G1 X128.804 Y130.973 E1.87084
G1 X128.286 Y131.391 E1.89298
G1 X127.35 Y132.069 E1.93142
G1 X126.798 Y132.428 E1.95332
G1 X125.782 Y133.015 E1.99235
G1 X125.202 Y133.311 E2.01401
G1 X124.182 Y133.769 E2.05119
G1 X123.58 Y134.004 E2.07269
G1 X122.543 Y134.349 E2.10904
G1 X121.954 Y134.514 E2.12938
G1 X120.873 Y134.762 E2.16627
G1 X120.211 Y134.878 E2.18862
G1 X119.055 Y135.018 E2.22735
G1 X118.385 Y135.063 E2.24969
G1 X117.155 Y135.082 E2.2906
G1 X116.32 Y135.041 E2.31841
G1 X114.636 Y134.846 E2.37479
G1 X113.659 Y134.655 E2.4079
G1 X111.938 Y134.177 E2.46731
G1 X111.139 Y133.896 E2.49548
G1 X110.061 Y133.436 E2.53446
G1 X109.457 Y133.14 E2.55683
G1 X108.445 Y132.576 E2.59537
G1 X107.779 Y132.149 E2.62168
G1 X106.467 Y131.188 E2.67577
G1 X105.855 Y130.678 E2.70227
G1 X104.977 Y129.849 E2.74243
G1 X104.494 Y129.34 E2.76577
G1 X103.73 Y128.441 E2.80501
G1 X103.249 Y127.797 E2.83174
G1 X102.36 Y126.436 E2.88581
G1 X101.956 Y125.721 E2.91313
G1 X101.392 Y124.554 E2.95624
G1 X101.071 Y123.757 E2.98481
G1 X100.542 Y122.138 E3.04146
G1 X100.337 Y121.34 E3.06887
G1 X100.124 Y120.214 E3.10698
G1 X100.036 Y119.581 E3.12824
G1 X99.939 Y118.47 E3.16533
G1 X99.92 Y117.666 E3.19208
G1 X99.985 Y115.984 E3.24807
G1 X100.069 Y115.168 E3.27535
G1 X100.269 Y113.981 E3.31539
G1 X100.415 Y113.327 E3.33767
G1 X100.708 Y112.275 E3.37399
G1 X100.905 Y111.68 E3.39484
G1 X101.318 Y110.614 E3.43286
G1 X101.67 Y109.857 E3.46063
G1 X102.53 Y108.283 E3.52029
G1 X103.081 Y107.44 E3.55378
G1 X104.113 Y106.104 E3.60993
G1 X104.638 Y105.505 E3.63642
G1 X105.432 Y104.706 E3.67389
M204 S5000
M205 X30 Y30
G0 F3600 X105.716 Y104.988
M204 S500
M205 X20 Y20
G1 F1500 X106.181 Y104.567 E3.69475
G1 X107.101 Y103.817 E3.73423
G1 X107.592 Y103.456 E3.7545
G1 X108.506 Y102.854 E3.7909
G1 X109.181 Y102.47 E3.81673
G1 X110.815 Y101.675 E3.87717
G1 X111.565 Y101.37 E3.9041
G1 X112.693 Y100.999 E3.94359
G1 X113.298 Y100.835 E3.96444
G1 X114.425 Y100.591 E4.00279
G1 X115.176 Y100.477 E4.02806
G1 X116.869 Y100.33 E4.08458
G1 X117.661 Y100.314 E4.11093
G1 X118.87 Y100.369 E4.15118
G1 X119.775 Y100.48 E4.18151
G1 X121.973 Y100.92 E4.25606
G1 X122.868 Y101.172 E4.28699
G1 X123.979 Y101.581 E4.32636
G1 X124.538 Y101.82 E4.34658
G1 X125.558 Y102.318 E4.38434
G1 X126.222 Y102.696 E4.40975
G1 X127.617 Y103.613 E4.46527
G1 X128.211 Y104.059 E4.48998
G1 X129.059 Y104.781 E4.52702
G1 X129.523 Y105.221 E4.54829
G1 X130.401 Y106.147 E4.59073
G1 X130.822 Y106.642 E4.61235
G1 X131.512 Y107.549 E4.65025
G1 X132.014 Y108.326 E4.68102
G1 X133.123 Y110.375 E4.75851
G1 X133.489 Y111.193 E4.78832
G1 X133.826 Y112.126 E4.82131
G1 X133.996 Y112.678 E4.84052
G1 X134.299 Y113.863 E4.8812
G1 X134.426 Y114.501 E4.90284
G1 X134.584 Y115.608 E4.94003
G1 X134.639 Y116.212 E4.9602
G1 X134.686 Y117.367 E4.99865
G1 X134.678 Y118.005 E5.01987
G1 X134.595 Y119.266 E5.0619
G1 X134.494 Y120.038 E5.0878
G1 X134.176 Y121.643 E5.14222
G1 X133.982 Y122.376 E5.16744
G1 X133.609 Y123.494 E5.20664
G1 X133.382 Y124.072 E5.22729
G1 X132.907 Y125.12 E5.26556
G1 X132.534 Y125.817 E5.29185
G1 X131.594 Y127.325 E5.35096
G1 X131.044 Y128.071 E5.38178
G1 X129.935 Y129.356 E5.43824
G1 X129.398 Y129.903 E5.46373
G1 X128.537 Y130.675 E5.5022
G1 X128.052 Y131.067 E5.52294
G1 X127.116 Y131.745 E5.56138
G1 X126.598 Y132.081 E5.58191
G1 X125.582 Y132.668 E5.62094
G1 X125.038 Y132.947 E5.64128
G1 X124.018 Y133.405 E5.67846
G1 X123.454 Y133.624 E5.69859
G1 X122.417 Y133.969 E5.73494
G1 X121.865 Y134.124 E5.75401
G1 X120.784 Y134.372 E5.79089
G1 X120.163 Y134.48 E5.81186
G1 X119.007 Y134.62 E5.85059
G1 X118.379 Y134.663 E5.87153
G1 X117.149 Y134.682 E5.91244
G1 X116.366 Y134.643 E5.93852
G1 X114.682 Y134.448 E5.9949
G1 X113.766 Y134.269 E6.02594
G1 X112.045 Y133.791 E6.08535
G1 X111.296 Y133.529 E6.11174
G1 X110.218 Y133.069 E6.15072
G1 X109.652 Y132.791 E6.1717
G1 X108.64 Y132.227 E6.21023
G1 X108.016 Y131.826 E6.2349
G1 X106.704 Y130.865 E6.28899
G1 X106.13 Y130.388 E6.31382
G1 X105.252 Y129.559 E6.35398
G1 X104.799 Y129.081 E6.37588
G1 X104.035 Y128.182 E6.41512
G1 X103.584 Y127.578 E6.44019
G1 X102.695 Y126.217 E6.49426
G1 X102.316 Y125.547 E6.51986
G1 X101.752 Y124.38 E6.56297
G1 X101.451 Y123.633 E6.58976
G1 X100.922 Y122.014 E6.64641
G1 X100.73 Y121.265 E6.67213
G1 X100.517 Y120.139 E6.71024
G1 X100.435 Y119.546 E6.73015
G1 X100.338 Y118.435 E6.76725
G1 X100.319 Y117.681 E6.79233
G1 X100.384 Y115.999 E6.84832
G1 X100.463 Y115.234 E6.8739
G1 X100.663 Y114.047 E6.91393
G1 X100.8 Y113.434 E6.93482
G1 X101.093 Y112.382 E6.97115
G1 X101.278 Y111.824 E6.9907
G1 X101.691 Y110.758 E7.02872
G1 X102.021 Y110.049 E7.05473
G1 X102.881 Y108.475 E7.11439
G1 X103.398 Y107.684 E7.14582
G1 X104.43 Y106.348 E7.20197
G1 X104.922 Y105.787 E7.22678
G1 X105.716 Y104.988 E7.26425
M204 S5000
M205 X30 Y30
G0 F3600 X106 Y105.27
M204 S500
M205 X20 Y20
G1 F1500 X106.434 Y104.877 E7.28372
G1 X107.354 Y104.127 E7.3232
G1 X107.812 Y103.79 E7.34211
G1 X108.726 Y103.188 E7.37852
G1 X109.356 Y102.829 E7.40263
G1 X110.99 Y102.034 E7.46307
G1 X111.69 Y101.75 E7.4882
G1 X112.818 Y101.379 E7.52769
G1 X113.383 Y101.226 E7.54716
G1 X114.51 Y100.982 E7.58551
G1 X115.211 Y100.876 E7.60909
G1 X116.904 Y100.729 E7.66561
G1 X117.642 Y100.714 E7.69017
G1 X118.851 Y100.769 E7.73042
G1 X119.696 Y100.872 E7.75873
G1 X121.894 Y101.312 E7.83329
G1 X122.73 Y101.548 E7.86218
G1 X123.841 Y101.957 E7.90156
G1 X124.363 Y102.18 E7.92044
G1 X125.383 Y102.678 E7.95819
G1 X126.002 Y103.03 E7.98187
G1 X127.397 Y103.947 E8.0374
G1 X127.951 Y104.363 E8.06044
G1 X128.799 Y105.085 E8.09748
G1 X129.233 Y105.496 E8.11736
G1 X130.111 Y106.422 E8.15981
G1 X130.504 Y106.884 E8.17998
G1 X131.194 Y107.791 E8.21788
G1 X131.662 Y108.516 E8.24658
G1 X132.771 Y110.565 E8.32408
G1 X133.113 Y111.329 E8.35192
G1 X133.45 Y112.262 E8.38491
G1 X133.608 Y112.777 E8.40283
G1 X133.911 Y113.962 E8.44351
G1 X134.03 Y114.558 E8.46372
G1 X134.188 Y115.665 E8.50092
G1 X134.239 Y116.228 E8.51972
G1 X134.286 Y117.383 E8.55816
G1 X134.279 Y117.979 E8.57799
G1 X134.196 Y119.24 E8.62002
G1 X134.101 Y119.96 E8.64418
G1 X133.783 Y121.565 E8.6986
G1 X133.602 Y122.249 E8.72213
G1 X133.229 Y123.367 E8.76133
G1 X133.018 Y123.907 E8.78061
G1 X132.543 Y124.955 E8.81888
G1 X132.194 Y125.605 E8.84342
G1 X131.254 Y127.113 E8.90252
G1 X130.741 Y127.81 E8.93131
G1 X129.632 Y129.095 E8.98776
G1 X129.131 Y129.605 E9.01154
G1 X128.27 Y130.377 E9.05
G1 X127.817 Y130.743 E9.06937
G1 X126.881 Y131.421 E9.10781
G1 X126.397 Y131.735 E9.127
G1 X125.381 Y132.322 E9.16603
G1 X124.874 Y132.582 E9.18498
G1 X123.854 Y133.04 E9.22217
G1 X123.328 Y133.245 E9.24095
G1 X122.291 Y133.59 E9.27729
G1 X121.775 Y133.734 E9.29511
G1 X120.694 Y133.982 E9.332
G1 X120.115 Y134.083 E9.35155
G1 X118.959 Y134.223 E9.39028
G1 X118.372 Y134.263 E9.40985
G1 X117.142 Y134.282 E9.45076
G1 X116.412 Y134.246 E9.47507
G1 X114.728 Y134.051 E9.53146
G1 X113.873 Y133.884 E9.56043
G1 X112.152 Y133.406 E9.61984
G1 X111.453 Y133.161 E9.64447
G1 X110.375 Y132.701 E9.68346
G1 X109.847 Y132.442 E9.70302
G1 X108.835 Y131.878 E9.74155
G1 X108.252 Y131.504 E9.76459
G1 X106.94 Y130.543 E9.81868
G1 X106.404 Y130.097 E9.84187
G1 X105.526 Y129.268 E9.88203
G1 X105.104 Y128.822 E9.90246
G1 X104.34 Y127.923 E9.9417
G1 X103.919 Y127.359 E9.9651
G1 X103.03 Y125.998 E10.01917
G1 X102.676 Y125.373 E10.04306
G1 X102.112 Y124.206 E10.08617
G1 X101.831 Y123.508 E10.1112
G1 X101.302 Y121.889 E10.16785
G1 X101.123 Y121.191 E10.19182
G1 X100.91 Y120.065 E10.22993
G1 X100.833 Y119.511 E10.24853
G1 X100.736 Y118.4 E10.28563
G1 X100.719 Y117.697 E10.30902
G1 X100.784 Y116.015 E10.365
G1 X100.858 Y115.301 E10.38888
G1 X101.058 Y114.114 E10.42891
G1 X101.185 Y113.541 E10.44843
G1 X101.478 Y112.489 E10.48475
G1 X101.651 Y111.969 E10.50298
G1 X102.064 Y110.903 E10.541
G1 X102.372 Y110.241 E10.56529
G1 X103.232 Y108.667 E10.62495
G1 X103.714 Y107.929 E10.65426
G1 X104.746 Y106.593 E10.71041
G1 X105.206 Y106.069 E10.7336
G1 X106 Y105.27 E10.77107
M204 S5000
M205 X30 Y30
G0 F3600 X106.284 Y105.552
M204 S500
M205 X20 Y20
G1 F1500 X106.686 Y105.187 E10.78913
G1 X107.606 Y104.437 E10.82861
G1 X108.032 Y104.124 E10.84619
G1 X108.946 Y103.522 E10.88259
G1 X109.531 Y103.189 E10.90498
G1 X111.165 Y102.394 E10.96542
G1 X111.815 Y102.13 E10.98875
G1 X112.943 Y101.759 E11.02824
G1 X113.468 Y101.617 E11.04633
G1 X114.595 Y101.373 E11.08469
G1 X115.245 Y101.274 E11.10655
G1 X116.938 Y101.127 E11.16308
G1 X117.624 Y101.113 E11.1859
G1 X118.833 Y101.168 E11.22615
G1 X119.618 Y101.264 E11.25245
G1 X121.816 Y101.704 E11.32701
G1 X122.591 Y101.923 E11.3538
G1 X123.702 Y102.332 E11.39317
G1 X124.187 Y102.539 E11.41071
G1 X125.207 Y103.037 E11.44846
G1 X125.782 Y103.365 E11.47048
G1 X127.177 Y104.282 E11.52601
G1 X127.692 Y104.668 E11.54741
G1 X128.54 Y105.39 E11.58446
G1 X128.942 Y105.771 E11.60288
G1 X129.82 Y106.697 E11.64532
G1 X130.186 Y107.127 E11.6641
G1 X130.876 Y108.034 E11.702
G1 X131.31 Y108.707 E11.72864
G1 X132.419 Y110.756 E11.80613
G1 X132.737 Y111.464 E11.83195
G1 X133.074 Y112.397 E11.86494
G1 X133.221 Y112.876 E11.8816
G1 X133.524 Y114.061 E11.92229
G1 X133.634 Y114.614 E11.94104
G1 X133.792 Y115.721 E11.97823
G1 X133.84 Y116.245 E11.99573
G1 X133.887 Y117.4 E12.03418
G1 X133.88 Y117.953 E12.05257
G1 X133.797 Y119.214 E12.09461
G1 X133.709 Y119.883 E12.11705
G1 X133.391 Y121.488 E12.17147
G1 X133.223 Y122.123 E12.19332
G1 X132.85 Y123.241 E12.23252
G1 X132.653 Y123.742 E12.25042
G1 X132.178 Y124.79 E12.28869
G1 X131.855 Y125.394 E12.31147
G1 X130.915 Y126.902 E12.37057
G1 X130.439 Y127.548 E12.39726
G1 X129.33 Y128.833 E12.45372
G1 X128.864 Y129.308 E12.47585
G1 X128.003 Y130.08 E12.51431
G1 X127.582 Y130.419 E12.53229
G1 X126.646 Y131.097 E12.57073
G1 X126.197 Y131.389 E12.58855
G1 X125.181 Y131.976 E12.62757
G1 X124.71 Y132.217 E12.64517
G1 X123.69 Y132.675 E12.68236
G1 X123.202 Y132.865 E12.69978
G1 X122.165 Y133.21 E12.73612
G1 X121.686 Y133.344 E12.75267
G1 X120.605 Y133.592 E12.78956
G1 X120.067 Y133.686 E12.80772
G1 X118.911 Y133.826 E12.84645
G1 X118.366 Y133.863 E12.86462
G1 X117.136 Y133.882 E12.90553
G1 X116.458 Y133.848 E12.92811
G1 X114.774 Y133.653 E12.9845
G1 X113.98 Y133.498 E13.0114
G1 X112.259 Y133.02 E13.07081
G1 X111.61 Y132.793 E13.09368
G1 X110.532 Y132.333 E13.13266
G1 X110.042 Y132.092 E13.15082
G1 X109.03 Y131.528 E13.18936
G1 X108.488 Y131.181 E13.21076
G1 X107.176 Y130.22 E13.26485
G1 X106.679 Y129.806 E13.28637
G1 X105.801 Y128.977 E13.32653
G1 X105.409 Y128.563 E13.34549
G1 X104.645 Y127.664 E13.38473
G1 X104.253 Y127.141 E13.40647
G1 X103.364 Y125.78 E13.46054
G1 X103.036 Y125.199 E13.48273
G1 X102.472 Y124.032 E13.52584
G1 X102.211 Y123.384 E13.54908
G1 X101.682 Y121.765 E13.60573
G1 X101.516 Y121.117 E13.62797
G1 X101.303 Y119.991 E13.66609
G1 X101.232 Y119.476 E13.68338
G1 X101.135 Y118.365 E13.72047
G1 X101.119 Y117.712 E13.7422
G1 X101.184 Y116.03 E13.79818
G1 X101.252 Y115.367 E13.82035
G1 X101.452 Y114.18 E13.86039
G1 X101.571 Y113.649 E13.87849
G1 X101.864 Y112.597 E13.91481
G1 X102.024 Y112.113 E13.93176
G1 X102.437 Y111.047 E13.96979
G1 X102.723 Y110.433 E13.99231
G1 X103.583 Y108.859 E14.05197
G1 X104.031 Y108.173 E14.07922
G1 X105.063 Y106.837 E14.13537
G1 X105.49 Y106.351 E14.15689
G1 X106.284 Y105.552 E14.19435
M204 S5000
M205 X30 Y30
G1 F2400 E9.19435
;MESH:CD-Spindle.stl
G0 F3600 X114.147 Y106.12
G0 X114.539 Y107.342
G0 X118.302 Y107.03
G0 X118.309 Y106.931
M204 S500
M205 X20 Y20
;TYPE:WALL-INNER
G1 F2400 E14.19435
G1 F1500 X118.865 Y106.989 E14.21295
G1 X119.395 Y107.071 E14.23078
G1 X119.944 Y107.186 E14.24944
G1 X120.466 Y107.323 E14.26739
G1 X120.988 Y107.49 E14.28562
G1 X121.483 Y107.677 E14.30322
G1 X121.991 Y107.899 E14.32166
G1 X122.496 Y108.151 E14.34043
G1 X122.954 Y108.411 E14.35794
G1 X123.429 Y108.714 E14.37668
G1 X123.85 Y109.013 E14.39386
G1 X124.287 Y109.358 E14.41238
G1 X124.704 Y109.724 E14.43083
G1 X125.081 Y110.091 E14.44833
G1 X125.459 Y110.498 E14.4668
G1 X125.808 Y110.917 E14.48494
G1 X126.137 Y111.355 E14.50316
G1 X126.441 Y111.807 E14.52128
G1 X126.727 Y112.283 E14.53975
G1 X126.983 Y112.766 E14.55793
G1 X127.211 Y113.25 E14.57573
G1 X127.413 Y113.747 E14.59357
G1 X127.6 Y114.282 E14.61242
G1 X127.752 Y114.806 E14.63057
G1 X127.877 Y115.337 E14.64871
G1 X127.973 Y115.864 E14.66653
G1 X128.045 Y116.415 E14.68501
G1 X128.085 Y116.939 E14.70249
G1 X128.1 Y117.494 E14.72095
G1 X128.086 Y118.042 E14.73919
G1 X128.046 Y118.574 E14.75693
G1 X127.973 Y119.136 E14.77578
G1 X127.879 Y119.653 E14.79326
G1 X127.752 Y120.194 E14.81174
G1 X127.603 Y120.708 E14.82954
G1 X127.415 Y121.248 E14.84856
G1 X127.214 Y121.744 E14.86636
G1 X126.983 Y122.234 E14.88437
G1 X126.727 Y122.717 E14.90256
G1 X126.445 Y123.187 E14.92079
G1 X126.137 Y123.645 E14.93914
G1 X125.811 Y124.079 E14.9572
G1 X125.466 Y124.493 E14.97512
G1 X125.086 Y124.903 E14.99371
G1 X124.704 Y125.276 E15.01147
G1 X124.291 Y125.639 E15.02976
G1 X123.866 Y125.975 E15.04778
G1 X123.414 Y126.295 E15.0662
G1 X122.954 Y126.589 E15.08436
G1 X122.496 Y126.849 E15.10187
G1 X121.992 Y127.1 E15.1206
G1 X121.483 Y127.323 E15.13908
G1 X120.99 Y127.509 E15.15661
G1 X120.466 Y127.677 E15.17491
G1 X119.944 Y127.814 E15.19286
G1 X119.395 Y127.929 E15.21152
G1 X118.864 Y128.011 E15.22939
G1 X118.309 Y128.069 E15.24795
G1 X117.778 Y128.096 E15.26563
G1 X117.222 Y128.096 E15.28412
G1 X116.691 Y128.069 E15.30181
G1 X116.136 Y128.011 E15.32037
G1 X115.605 Y127.929 E15.33824
G1 X115.055 Y127.814 E15.35693
G1 X114.534 Y127.677 E15.37484
G1 X114.01 Y127.509 E15.39315
G1 X113.517 Y127.323 E15.41067
G1 X113.008 Y127.1 E15.42915
G1 X112.504 Y126.849 E15.44788
G1 X112.046 Y126.589 E15.4654
G1 X111.586 Y126.295 E15.48356
G1 X111.134 Y125.975 E15.50198
G1 X110.709 Y125.639 E15.52
